!!!!SEGMENT: pl-stab--14a--001-004_rodowski-aleksander--missa-in-c-sanctus.krn
!!!cenid: 18xx:3396
!!!COM: Rodowski, Aleksander
!!!COM-rismID: pe30009627
!!!CDT: <1790->1810
!!!CNT: Polish
!!!OPR: Missa in C
!!!OTL: Sanctus
!!!OMV: 004
!!!PDT:
!!!AGN:
!!!YEC: Copyright 2022 Narodowy Instytut Fryderyka Chopina (https://polishscores.org)
!!!YEM: License CC-BY-4.0 (https://creativecommons.org/licenses/by/4.0)
!!!SMS-siglum: PL-STAb
!!!SMS-shelfmark: 14a
!!!SMS-shelfwork: 001-004 M
!!!SMS-variant:
!!!SMS-altvar:
!!!NIFC-rismSourceID: 301050680
!!!NIFC-rismChildID: 301050680
!!!NIFC-islandoraID: pl-stab:2671
!!!URL-pdf-islandora: https://repozytorium.nifc.pl/islandora/object/pl-stab%3A2671/datastream/PDF/view
!!!URL-scan: https://polish.musicsources.pl/pl/lokalizacje/galeria/rekopisy/4417 @EN{Scan on Polish Music Sources Website} @PL{Skany w portalu Dziedzictwo Muzyki Polskiej w otwartym dostępie}
!!!IIIF:
!!!ONB-nifc: UWAGA: części Mszy: 1. Kyrie, 2. Gloria, 3. Patrem, 4. Sanctus, 5. Agnus Dei
!!!AIN: 1 alto 1 bass 2 clars 2 cor 1 organ 1 soprn 1 tenor 2 violn
!!!key: C
**kern	**fba	**kern	**kern	**kern	**text	**text	**kern	**text	**kern	**text	**kern	**text	**kern	**kern	**kern	**kern
*group5	*	*group4	*group4	*group3	*	*	*group3	*	*group3	*	*group3	*	*group2	*group2	*group1	*group1
*part11	*	*part10	*part9	*part8	*	*	*part7	*	*part6	*	*part5	*	*part4	*part3	*part2	*part1
*staff11	*	*staff10	*staff9	*staff8	*	*	*staff7	*	*staff6	*	*staff5	*	*staff4	*staff3	*staff2	*staff1
*I"Organo	*	*I"Violino Secundo	*I"Violino Primo	*I"Baſso	*	*	*I"Tenore	*	*I"Alto	*	*I"Canto	*	*I"Cornu Secundo In C.	*I"Cornu Primo In C.	*I"Clarinetto Secundo	*I"Clarinetto Primo
*I'org	*	*I'vl 2	*I'vl 1	*I'B	*	*	*I'T	*	*I'A	*	*I'S	*	*I'cor 2	*I'cor 1	*I'cl 2	*I'cl 1
*Iorgan	*	*Ivioln	*Ivioln	*Ibass	*	*	*Itenor	*	*Ialto	*	*Isoprn	*	*Icor	*Icor	*Iclars	*Iclars
*ICklav	*	*ICstr	*ICstr	*ICvox	*	*	*ICvox	*	*ICvox	*	*ICvox	*	*ICbras	*ICbras	*ICww	*ICww
*clefF4	*	*clefG2	*clefG2	*clefF4	*	*	*clefC4	*	*clefC3	*	*clefC1	*	*clefG2	*clefG2	*clefG2	*clefG2
*	*	*	*	*	*	*	*	*	*	*	*	*	*Trd0c0	*Trd0c0	*	*
*k[]	*	*k[]	*k[]	*k[]	*	*	*k[]	*	*k[]	*	*k[]	*	*k[]	*k[]	*k[]	*k[]
*C:	*	*C:	*C:	*C:	*	*	*C:	*	*C:	*	*C:	*	*C:	*C:	*C:	*C:
*M3/4	*	*M3/4	*M3/4	*M3/4	*	*	*M3/4	*	*M3/4	*	*M3/4	*	*M3/4	*M3/4	*M3/4	*M3/4
=1	=1	=1	=1	=1	=1	=1	=1	=1	=1	=1	=1	=1	=1	=1	=1	=1
*2\right	*	*2\right	*2\right	*2\right	*2\right	*2\right	*2\right	*2\right	*2\right	*2\right	*2\right	*2\right	*2\right	*2\right	*2\right	*2\right
!	!	!	!	!LO:TX:a:B:t=Adagio	!	!	!LO:TX:a:B:t=adagio	!	!LO:TX:a:B:t=Adagio	!	!	!	!	!	!LO:TX:a:B:t=Adagio	!LO:TX:a:B:t=Adagio
!LO:TX:a:B:t=Adagio	!	!LO:TX:a:B:t=Adagio	!LO:TX:a:B:t=Andante	!LO:N:vis=00	!	!	!LO:N:vis=00	!	!LO:N:vis=00	!	!LO:N:vis=00	!	!LO:TX:a:B:t=Adagio	!LO:TX:a:B:t=Adagio	!LO:TX:a:t=Solo	!LO:TX:a:t=Solo
4c\	.	4cc 4e 4G/	4ccc 4ee 4g\	0.r	.	.	0.r	.	0.r	.	0.r	.	4c/	4cc\	8r	8r
.	.	.	.	.	.	.	.	.	.	.	.	.	.	.	8cc\L	8ee\L
4r	.	4r	4r	.	.	.	.	.	.	.	.	.	4r	4r	8cc\	8ee\
.	.	.	.	.	.	.	.	.	.	.	.	.	.	.	8cc\	8ee\
4r	.	4r	4r	.	.	.	.	.	.	.	.	.	4r	4r	8.dd\	8.ff\
.	.	.	.	.	.	.	.	.	.	.	.	.	.	.	16cc\Jk	16ee\Jk
=2	=2	=2	=2	=2	=2	=2	=2	=2	=2	=2	=2	=2	=2	=2	=2	=2
4A\	.	4cc 4e 4A/	4ccc 4ee\	.	.	.	.	.	.	.	.	.	4c/	4cc\	8r	8r
.	.	.	.	.	.	.	.	.	.	.	.	.	.	.	8cc\L	8ee\L
4r	.	4r	4r	.	.	.	.	.	.	.	.	.	4r	4r	8cc\	8ee\
.	.	.	.	.	.	.	.	.	.	.	.	.	.	.	8cc\	8ee\
4r	.	4r	4r	.	.	.	.	.	.	.	.	.	4r	4r	8.dd\	8.ff\
.	.	.	.	.	.	.	.	.	.	.	.	.	.	.	16cc\Jk	16ee\Jk
=3	=3	=3	=3	=3	=3	=3	=3	=3	=3	=3	=3	=3	=3	=3	=3	=3
!	!	!	!	!	!	!	!	!	!	!	!	!	!LO:SIC:v:s=4dd\	!	!	!
4F\	.	4f 4G/	4ddd 4ff\	.	.	.	.	.	.	.	.	.	4cc\	4dd\	8r	8r
.	.	.	.	.	.	.	.	.	.	.	.	.	.	.	8dd\L	8ff\L
4r	.	4r	4r	.	.	.	.	.	.	.	.	.	4r	4r	8dd\	8ff\
.	.	.	.	.	.	.	.	.	.	.	.	.	.	.	8dd\	8ff\
4r	.	4r	4r	.	.	.	.	.	.	.	.	.	4r	4r	8.ee\	8.gg\
.	.	.	.	.	.	.	.	.	.	.	.	.	.	.	16dd\Jk	16ff\Jk
=4	=4	=4	=4	=4	=4	=4	=4	=4	=4	=4	=4	=4	=4	=4	=4	=4
4G\	.	4f 4G/	4bb 4dd\	.	.	.	.	.	.	.	.	.	4g/	4dd\	8r	8r
.	.	.	.	.	.	.	.	.	.	.	.	.	.	.	8b\L	8dd\L
4r	.	4r	4r	.	.	.	.	.	.	.	.	.	4r	4r	8b\	8dd\
.	.	.	.	.	.	.	.	.	.	.	.	.	.	.	8b\	8dd\
4r	.	4r	4r	.	.	.	.	.	.	.	.	.	4r	4r	8.cc\	8.ee\
.	.	.	.	.	.	.	.	.	.	.	.	.	.	.	16b\Jk	16dd\Jk
!	!	!	!	!	!	!	!	!	!	!	!	!	!	!	!	!LO:LB:g=original
=5	=5	=5	=5	=5	=5	=5	=5	=5	=5	=5	=5	=5	=5	=5	=5	=5
*	*	*	*	*2\right	*	*	*2\right	*	*2\right	*	*2\right	*	*	*	*	*
4c\	.	4cc 4e 4G/	4ccc 4ee 4g\	2.c\	San-	.	2.e\	San-	2.ee\	San-	2.gg\	San-	4cc\	4ee\	8r	8r
.	.	.	.	.	.	.	.	.	.	.	.	.	.	.	8cc\L	8ee\L
4r	.	4r	4r	.	.	.	.	.	.	.	.	.	4r	4r	8cc\	8ee\
.	.	.	.	.	.	.	.	.	.	.	.	.	.	.	8cc\	8ee\
4r	.	4r	4r	.	.	.	.	.	.	.	.	.	4r	4r	8.dd\	8.ff\
.	.	.	.	.	.	.	.	.	.	.	.	.	.	.	16cc\Jk	16ee\Jk
!	!	!LO:LB:g=original	!LO:LB:g=original	!	!	!	!	!	!	!	!	!	!	!	!LO:LB:g=original	!
=6	=6	=6	=6	=6	=6	=6	=6	=6	=6	=6	=6	=6	=6	=6	=6	=6
4A\	.	4cc 4e 4G/	4ccc 4ee\	2.A\	.	.	2.c\	.	2.cc\	.	2.ee\	.	4cc\	4ee\	8r	8r
.	.	.	.	.	.	.	.	.	.	.	.	.	.	.	8cc\L	8ee\L
4r	.	4r	4r	.	.	.	.	.	.	.	.	.	4r	4r	8cc\	8ee\
.	.	.	.	.	.	.	.	.	.	.	.	.	.	.	8cc\	8ee\
4r	.	4r	4r	.	.	.	.	.	.	.	.	.	4r	4r	8.dd\	8.ff\
.	.	.	.	.	.	.	.	.	.	.	.	.	.	.	16cc\Jk	16ee\Jk
=7	=7	=7	=7	=7	=7	=7	=7	=7	=7	=7	=7	=7	=7	=7	=7	=7
4F\	.	4f 4G/	4ddd 4ff\	2.F\	.	.	2.f\	.	2.ff\	.	2.aa\	.	4dd\	4ff\	8r	8r
.	.	.	.	.	.	.	.	.	.	.	.	.	.	.	8dd\L	8ff\L
4r	.	4r	4r	.	.	.	.	.	.	.	.	.	4r	4r	8dd\	8ff\
.	.	.	.	.	.	.	.	.	.	.	.	.	.	.	8dd\	8ff\
4r	.	4r	4r	.	.	.	.	.	.	.	.	.	4r	4r	8.ee\	8.gg\
.	.	.	.	.	.	.	.	.	.	.	.	.	.	.	16dd\Jk	16ff\Jk
=8	=8	=8	=8	=8	=8	=8	=8	=8	=8	=8	=8	=8	=8	=8	=8	=8
4G\	.	4g 4G/	4bb 4dd\	2.G\	.	.	2.d\	.	2.dd\	.	2.ff\	.	4g/	4dd\	8r	8r
.	.	.	.	.	.	.	.	.	.	.	.	.	.	.	8b\L	8dd\L
4r	.	4r	4r	.	.	.	.	.	.	.	.	.	4r	4r	8b\	8dd\
.	.	.	.	.	.	.	.	.	.	.	.	.	.	.	8b\	8dd\
4r	.	4r	4r	.	.	.	.	.	.	.	.	.	4r	4r	8.cc\	8.ee\
.	.	.	.	.	.	.	.	.	.	.	.	.	.	.	16b\Jk	16dd\Jk
=9	=9	=9	=9	=9	=9	=9	=9	=9	=9	=9	=9	=9	=9	=9	=9	=9
!	!	!	!	!	!	!	!	!	!	!	!LO:TX:a:t=Solo.	!	!	!	!	!
4C/	.	4cc 4e 4G/	4ccc 4ee\	4C/	-ctus	.	4c\	-ctus	4cc\	-ctus	4ee\	-ctus	4cc\	4ee\	4cc\	4ee\
4r	.	4r	4r	4r	.	.	4e\	Do-	4ee\	Do-	4gg\	Do-	4r	4r	4r	4r
4r	.	4r	4r	4r	.	.	8e\	-mi-	8ee\	-mi-	8gg\	-mi-	4r	4r	4r	4r
.	.	.	.	.	.	.	8e\	-nus	8ee\	-nus	8gg\	-nus	.	.	.	.
=10	=10	=10	=10	=10	=10	=10	=10	=10	=10	=10	=10	=10	=10	=10	=10	=10
2.r	.	2.r	2.r	2.r	.	.	4e\	De-	4ee\	De-	4gg\	De-	2.r	2.r	2.r	2.r
.	.	.	.	.	.	.	4d#X\	.	4dd#X\	.	4ff#X\	.	.	.	.	.
.	.	.	.	.	.	.	4dn\	-us	4ddn\	-us	4ffn\	-us	.	.	.	.
!	!	!	!	!	!	!	!	!	!	!	!LO:LB:g=original	!	!LO:LB:g=original	!	!	!
=11	=11	=11	=11	=11	=11	=11	=11	=11	=11	=11	=11	=11	=11	=11	=11	=11
4c\	.	8cc/L	8ccc\L	4c\	Sa-	.	2c\	sa-	2cc\	Sa-	2ee\	Sa-	2.cc\	2.ee\	2.cc\	2.ee\
.	.	8b/	8bb\	.	.	.	.	.	.	.	.	.	.	.	.	.
4C/	.	8cc/	8ccc\	4C/	.	.	.	.	.	.	.	.	.	.	.	.
.	.	8g/	8gg\	.	.	.	.	.	.	.	.	.	.	.	.	.
4E/	.	8e/	8ee\	4E/	-ba-	.	4c\	-ba-	4cc\	-ba-	4ee\	-ba-	.	.	.	.
.	.	8c/J	8cc\J	.	.	.	.	.	.	.	.	.	.	.	.	.
!	!	!	!	!	!	!	!LO:LB:g=original	!	!LO:LB:g=original	!	!	!	!	!	!	!
=12	=12	=12	=12	=12	=12	=12	=12	=12	=12	=12	=12	=12	=12	=12	=12	=12
4G\	.	4g 4G/	4gg 4b 4d\	4G\	-oth	.	4B\	-oth	4b\	-oth	4dd\	-oth	4g/	4dd\	8b\L	8dd\L
.	.	.	.	.	.	.	.	.	.	.	.	.	.	.	8b\	8dd\
4r	.	4r	4r	4r	.	.	4r	.	4r	.	4r	.	4G/	4g/	8cc\	8ee\
.	.	.	.	.	.	.	.	.	.	.	.	.	.	.	8b\J	8dd\J
4r	.	4r	4r	4r	.	.	4r	.	4r	.	4r	.	4r	4r	4b\	4dd\
!LO:LB:g=original	!	!	!	!LO:LB:g=original	!	!	!	!	!	!	!	!	!	!	!	!LO:LB:g=original
=13	=13	=13	=13	=13	=13	=13	=13	=13	=13	=13	=13	=13	=13	=13	=13	=13
4G\	8 3	4b 4d 4G/	4gg 4b 4d\	2.G\	San-	.	2.G/	San-	2.b\	San-	2.gg\	San-	4G/	4g/	8r	8r
.	.	.	.	.	.	.	.	.	.	.	.	.	.	.	8b\L	8gg\L
4r	.	4r	4r	.	.	.	.	.	.	.	.	.	4r	4r	8b\	8gg\
.	.	.	.	.	.	.	.	.	.	.	.	.	.	.	8b\	8gg\
4r	.	4r	4r	.	.	.	.	.	.	.	.	.	4r	4r	8.cc\	8.aa\
.	.	.	.	.	.	.	.	.	.	.	.	.	.	.	16b\Jk	16gg\Jk
!	!	!	!	!	!	!	!	!	!	!	!	!	!	!LO:LB:g=original	!	!
=14	=14	=14	=14	=14	=14	=14	=14	=14	=14	=14	=14	=14	=14	=14	=14	=14
4G\	#7 4	4cc 4e 4G/	4aa 4ee 4cc 4a\	2.A\	.	.	2.G/	.	2.cc\	.	2.ff#X\	.	4G/	4g/	8r	8r
.	.	.	.	.	.	.	.	.	.	.	.	.	.	.	8cc\L	8ff#X\L
4r	.	4r	4r	.	.	.	.	.	.	.	.	.	4r	4r	8cc\	8ff#\
.	.	.	.	.	.	.	.	.	.	.	.	.	.	.	8cc\	8ff#\
4r	.	4r	4r	.	.	.	.	.	.	.	.	.	4r	4r	8.dd\	8ff#\
.	.	.	.	.	.	.	.	.	.	.	.	.	.	.	.	8ff#\J
.	.	.	.	.	.	.	.	.	.	.	.	.	.	.	16cc\Jk	.
!	!	!	!	!	!	!	!	!	!	!	!	!	!	!	!LO:LB:g=original	!
=15	=15	=15	=15	=15	=15	=15	=15	=15	=15	=15	=15	=15	=15	=15	=15	=15
4G\	#7 5	4dd 4f/	4bb 4dd\	2.B\	.	.	2.G/	.	2.dd\	.	2.ffn\	.	4G/	4g/	8r	8r
.	.	.	.	.	.	.	.	.	.	.	.	.	.	.	8dd\L	8ffn\L
4r	.	4r	4r	.	.	.	.	.	.	.	.	.	4r	4r	8dd\	8ff\
.	.	.	.	.	.	.	.	.	.	.	.	.	.	.	8dd\	8ff\
4r	.	4r	4r	.	.	.	.	.	.	.	.	.	4r	4r	8.ee\	8.gg\
.	.	.	.	.	.	.	.	.	.	.	.	.	.	.	16dd\Jk	16ff\Jk
!	!	!	!LO:LB:g=original	!	!	!	!	!	!	!	!	!	!	!	!	!
=16	=16	=16	=16	=16	=16	=16	=16	=16	=16	=16	=16	=16	=16	=16	=16	=16
4G\	6 4	4g 4c/	4ccc 4ee\	2.c\	-ctus	.	2.G/	-ctus	2.cc\	-ctus	2.ee\	-ctus	4G/	4g/	8r	8r
.	.	.	.	.	.	.	.	.	.	.	.	.	.	.	8cc\L	8ee\L
4r	.	4r	4r	.	.	.	.	.	.	.	.	.	4r	4r	8cc\	8ee\
.	.	.	.	.	.	.	.	.	.	.	.	.	.	.	8cc\	8ee\
4r	.	4r	4r	.	.	.	.	.	.	.	.	.	4r	4r	8.dd\	8.ff\
.	.	.	.	.	.	.	.	.	.	.	.	.	.	.	16cc\Jk	16ee\Jk
!	!	!LO:LB:g=original	!	!	!	!	!	!	!	!	!	!	!	!	!	!
=17	=17	=17	=17	=17	=17	=17	=17	=17	=17	=17	=17	=17	=17	=17	=17	=17
4G\	.	4b 4d/	4ddd 4ff\	4d\	Do-	.	4f\	Do-	4ff\	Do-	4gg\	Do-	4G/	4g/	8r	8r
.	.	.	.	.	.	.	.	.	.	.	.	.	.	.	8dd\L	8ff\L
4r	.	4r	4r	4d\	-mi-	.	4f\	-mi-	4ff\	-mi-	4gg\	-mi-	4r	4r	8dd\	8ff\
.	.	.	.	.	.	.	.	.	.	.	.	.	.	.	8dd\	8ff\
4r	.	4r	4r	4d\	-nus	.	4f\	-nus	4ff\	-nus	4gg\	-nus	4r	4r	8.ee\	8.gg\
.	.	.	.	.	.	.	.	.	.	.	.	.	.	.	16dd\Jk	16ff\Jk
=18	=18	=18	=18	=18	=18	=18	=18	=18	=18	=18	=18	=18	=18	=18	=18	=18
4G\	6 4	4e 4G/	4ccc 4ee\	2c\	De-	.	2e\	De-	2ee\	De-	2gg\	De-	4G/	4g/	8r	8r
.	.	.	.	.	.	.	.	.	.	.	.	.	.	.	8cc\L	8ee\L
4r	.	4r	4r	.	.	.	.	.	.	.	.	.	4r	4r	8cc\	8ee\
.	.	.	.	.	.	.	.	.	.	.	.	.	.	.	8cc\	8ee\
4r	.	4r	4r	4c\	-us	.	4e\	-us	4ee\	-us	4gg\	-us	4r	4r	8.dd\	8.ff\
.	.	.	.	.	.	.	.	.	.	.	.	.	.	.	16cc\Jk	16ee\Jk
!	!	!	!	!	!	!	!	!	!	!	!LO:LB:g=original	!	!	!	!	!LO:LB:g=original
=19	=19	=19	=19	=19	=19	=19	=19	=19	=19	=19	=19	=19	=19	=19	=19	=19
!	!	!LO:SIC:v:n=1:s=4e-	!LO:SIC:v:n=2:s=4a-\:?	!	!	!	!	!	!	!	!	!	!	!	!	!
4A-X\	5 3	4e 4G/	4ff#X 4a\	2A-X\	Sa-	.	2e-X\	Sa-	2ee-X\	Sa-	2ff#X\	Sa-	4G/	4g/	8r	8r
.	.	.	.	.	.	.	.	.	.	.	.	.	.	.	8cc\L	8ee-X\L
4r	.	4r	4r	.	.	.	.	.	.	.	.	.	4r	4r	8cc\	8ee-\
.	.	.	.	.	.	.	.	.	.	.	.	.	.	.	8cc\	8ee-\
4r	.	4r	4r	4A-\	-ba-	.	4e-\	-ba-	4ee-\	-ba-	4ff#\	-ba-	4r	4r	8.dd\	8.ff\
.	.	.	.	.	.	.	.	.	.	.	.	.	.	.	16cc\Jk	16ee-\Jk
=20	=20	=20	=20	=20	=20	=20	=20	=20	=20	=20	=20	=20	=20	=20	=20	=20
4G\	n6 3	4d 4G/	4gg 4b 4d\	2G\	-oth	.	2d\	-oth	2dd\	-oth	2gg\	-oth	4G/	4g/	8b\L	8dd\L
.	.	.	.	.	.	.	.	.	.	.	.	.	.	.	8cc\	8ee-X\
4GG/	.	4d 4B/	4g/	.	.	.	.	.	.	.	.	.	4G/	4g/	8b\	8dd\
.	.	.	.	.	.	.	.	.	.	.	.	.	.	.	8cc\	8ee-\
4GG/	.	4d 4B/	4g/	4r	.	.	4r	.	4r	.	4r	.	4G/	4g/	8b\	8dd\
.	.	.	.	.	.	.	.	.	.	.	.	.	.	.	8cc\J	8ee-\J
=21	=21	=21	=21	=21	=21	=21	=21	=21	=21	=21	=21	=21	=21	=21	=21	=21
2GG/	.	2d 2B/	2g/	2.r	.	.	2.r	.	2.r	.	2.r	.	2G/	2.g/	2b\	2dd\
4r	.	4r	4r	.	.	.	.	.	.	.	.	.	4r	.	4r	4r
!	!	!	!	!	!	!	!	!	!	!	!	!	!	!LO:TX:b:rj:t=Pleni sunt Verte	!LO:TX:b:rj:t=V.S Plani Sunt	!
!LO:LB:g=original	!	!LO:LB:g=original	!LO:PB:g=original	!LO:PB:g=original	!	!	!LO:LB:g=original	!	!LO:LB:g=original	!	!LO:LB:g=original	!	!LO:LB:g=original	!LO:PB:g=original	!LO:PB:g=original	!LO:LB:g=original
=22||	=22||	=22||	=22||	=22||	=22||	=22||	=22||	=22||	=22||	=22||	=22||	=22||	=22||	=22||	=22||	=22||
*M2/2	*	*M2/2	*M2/2	*M2/2	*	*	*M2/2	*	*M2/2	*	*M2/2	*	*M2/2	*M2/2	*M2/2	*M2/2
*met(c|)	*	*met(c|)	*met(c|)	*met(c|)	*	*	*met(c|)	*	*met(c|)	*	*met(c|)	*	*met(c|)	*met(c|)	*met(c|)	*met(c|)
*clefC1	*	*	*	*	*	*	*	*	*	*	*	*	*	*	*	*
!	!	!LO:TX:b:t=Pleni sunt	!LO:TX:b:t=Pleni sunt	!LO:TX:a:B:t=allegro	!	!	!LO:TX:a:B:t=allegro	!	!LO:TX:b:t=Pleni sunt	!	!	!	!LO:TX:a:B:t=allegro	!LO:TX:a:B:t=allegro	!LO:TX:a:B:t=allegro	!LO:TX:a:B:t=allegro
!	!	!	!	!	!	!	!	!	!	!	!	!	!LO:TX:b:t=Pleni	!LO:TX:b:t=Pleni	!LO:TX:b:t=Pleni sunt	!LO:TX:b:t=Pleni sunt
2gg\	.	00r	00r	00r	.	.	00r	.	00r	.	2gg\	Ple-	00r	00r	00r	00r
4ee\	.	.	.	.	.	.	.	.	.	.	4ee\	-ni	.	.	.	.
4cc\	.	.	.	.	.	.	.	.	.	.	4cc\	sunt	.	.	.	.
=23	=23	=23	=23	=23	=23	=23	=23	=23	=23	=23	=23	=23	=23	=23	=23	=23
4dd\	.	.	.	.	.	.	.	.	.	.	(4dd\	ce-	.	.	.	.
4ff\	.	.	.	.	.	.	.	.	.	.	4ff\)	.	.	.	.	.
4b\	.	.	.	.	.	.	.	.	.	.	4b\	-li	.	.	.	.
4dd\	.	.	.	.	.	.	.	.	.	.	4dd\	et	.	.	.	.
=24	=24	=24	=24	=24	=24	=24	=24	=24	=24	=24	=24	=24	=24	=24	=24	=24
4cc\	.	.	.	.	.	.	.	.	.	.	4cc\	ter-	.	.	.	.
4gg\	.	.	.	.	.	.	.	.	.	.	4gg\	.	.	.	.	.
4ee\	.	.	.	.	.	.	.	.	.	.	4ee\	-ra	.	.	.	.
4cc\	.	.	.	.	.	.	.	.	.	.	4cc\	glo-	.	.	.	.
=25	=25	=25	=25	=25	=25	=25	=25	=25	=25	=25	=25	=25	=25	=25	=25	=25
4dd\	.	.	.	.	.	.	.	.	.	.	4dd\	-ri-	.	.	.	.
4ff\	.	.	.	.	.	.	.	.	.	.	4ff\	-a	.	.	.	.
4b\	.	.	.	.	.	.	.	.	.	.	(4b\	tu-	.	.	.	.
!	!	!	!	!	!	!	!	!	!	!	!LO:TX:t=P:problem:-a:zapisane ołówkiem	!	!	!	!	!
4dd\	.	.	.	.	.	.	.	.	.	.	4dd\)	.	.	.	.	.
=26	=26	=26	=26	=26	=26	=26	=26	=26	=26	=26	=26	=26	=26	=26	=26	=26
!	!	!	!	!	!	!	!	!	!	!	!LO:TX:t=P:problem:glo-:zapisane ołówkiem	!	!	!	!	!
4cc\	.	00r	00r	1r	.	.	00r	.	00r	.	4cc\	.	00r	00r	00r	00r
4ee\	.	.	.	.	.	.	.	.	.	.	4ee\	.	.	.	.	.
4dd\	.	.	.	.	.	.	.	.	.	.	4dd\	.	.	.	.	.
!	!	!	!	!	!	!	!	!	!	!	!LO:TX:t=P:problem:-ri-:zapisane ołówkiem	!	!	!	!	!
4ff#X\	.	.	.	.	.	.	.	.	.	.	4ff#X\	.	.	.	.	.
!	!	!	!	!	!	!	!	!	!	!	!LO:LB:g=original	!	!	!	!	!
=27	=27	=27	=27	=27	=27	=27	=27	=27	=27	=27	=27	=27	=27	=27	=27	=27
*clefF4	*	*	*	*	*	*	*	*	*	*	*	*	*	*	*	*
2d\	x 4	.	.	2d\	Ple-	.	.	.	.	.	4gg\	-a	.	.	.	.
.	.	.	.	.	.	.	.	.	.	.	4b\	ple-	.	.	.	.
4B\	.	.	.	4B\	-ni	.	.	.	.	.	4dd\	-ni	.	.	.	.
4G\	.	.	.	4G\	sunt	.	.	.	.	.	4gg\	sunt	.	.	.	.
=28	=28	=28	=28	=28	=28	=28	=28	=28	=28	=28	=28	=28	=28	=28	=28	=28
*^	*	*	*	*	*	*	*	*	*	*	*	*	*	*	*	*
2e/	4A\	.	.	.	4A\	Cae-	.	.	.	.	.	2ee\	Ce-	.	.	.	.
.	4c\	.	.	.	4c\	.	.	.	.	.	.	.	.	.	.	.	.
2c/	4F#X\	.	.	.	4F#X\	-li	.	.	.	.	.	2cc\	-li	.	.	.	.
.	4A\	.	.	.	4A\	.	.	.	.	.	.	.	.	.	.	.	.
=29	=29	=29	=29	=29	=29	=29	=29	=29	=29	=29	=29	=29	=29	=29	=29	=29	=29
4B/	4G\	.	.	.	4G\	Cae-	.	.	.	.	.	2b\	Ce-	.	.	.	.
2.ryy	4d\	.	.	.	4d\	.	.	.	.	.	.	.	.	.	.	.	.
.	4B\	.	.	.	4B\	-li	.	.	.	.	.	4gg\	-li	.	.	.	.
.	4G\	.	.	.	4G\	et	.	.	.	.	.	4ee\	et	.	.	.	.
!LO:LB:g=original	!	!	!	!	!	!	!	!	!	!	!	!	!	!	!	!	!
=30	=30	=30	=30	=30	=30	=30	=30	=30	=30	=30	=30	=30	=30	=30	=30	=30	=30
2e/	4A\	.	0r	0r	4A\	ter-	.	0r	.	0r	.	2ee\	ter-	0r	0r	0r	0r
.	4c\	.	.	.	4c\	.	.	.	.	.	.	.	.	.	.	.	.
2c/	4F#X\	.	.	.	4F#X\	-ra	.	.	.	.	.	2cc\	-ra	.	.	.	.
.	4A\	.	.	.	4A\	.	.	.	.	.	.	.	.	.	.	.	.
!	!	!	!	!	!LO:LB:g=original	!	!	!	!	!	!	!	!	!	!	!	!
=31	=31	=31	=31	=31	=31	=31	=31	=31	=31	=31	=31	=31	=31	=31	=31	=31	=31
4B/	4G\	.	.	.	4G\	glo-	.	.	.	.	.	4b\	glo-	.	.	.	.
4B/	4Fn\	.	.	.	4Fn\	-ri-	.	.	.	.	.	4b\	-ri-	.	.	.	.
!	!	!	!	!	!	!	!	!	!	!	!	!LO:SIC:v:s=4cc\	!	!	!	!	!
4c/	4E\	.	.	.	4E\	-a	.	.	.	.	.	4b\	-a	.	.	.	.
4d/	4D\	.	.	.	4D\	tu-	.	.	.	.	.	4ffn\	tu-	.	.	.	.
*v	*v	*	*	*	*	*	*	*	*	*	*	*	*	*	*	*	*
=32	=32	=32	=32	=32	=32	=32	=32	=32	=32	=32	=32	=32	=32	=32	=32	=32
*	*	*tremolo	*tremolo	*	*	*	*	*	*	*	*	*	*	*	*	*
4C/	3 8	16e/LL	16ccc\LL	4C/	-a	.	2c\	O-	2g\	O-	2ee\	-a	2g/	2gg\	4e/	2gg\
.	.	16e/	16ccc\	.	.	.	.	.	.	.	.	.	.	.	.	.
.	.	16e/	16ccc\	.	.	.	.	.	.	.	.	.	.	.	.	.
.	.	16e/JJ	16ccc\JJ	.	.	.	.	.	.	.	.	.	.	.	.	.
4G\	.	16c/LL	16gg\LL	4E/	O-	.	.	.	.	.	.	.	.	.	4g/	.
.	.	16c/	16gg\	.	.	.	.	.	.	.	.	.	.	.	.	.
.	.	16c/	16gg\	.	.	.	.	.	.	.	.	.	.	.	.	.
.	.	16c/JJ	16gg\JJ	.	.	.	.	.	.	.	.	.	.	.	.	.
4E\	.	16g/LL	16ee\LL	4G/	-san-	.	4c\	-san-	4g\	-san-	2ee\	O-	4e/	4ee\	4e/	4ee\
.	.	16g/	16ee\	.	.	.	.	.	.	.	.	.	.	.	.	.
.	.	16g/	16ee\	.	.	.	.	.	.	.	.	.	.	.	.	.
.	.	16g/JJ	16ee\JJ	.	.	.	.	.	.	.	.	.	.	.	.	.
4C/	.	16e/LL	16cc\LL	4c\	-na	.	4c\	-na	4g\	-na	.	.	4c/	4cc\	4g/	4cc\
.	.	16e/	16cc\	.	.	.	.	.	.	.	.	.	.	.	.	.
.	.	16e/	16cc\	.	.	.	.	.	.	.	.	.	.	.	.	.
.	.	16e/JJ	16cc\JJ	.	.	.	.	.	.	.	.	.	.	.	.	.
=33	=33	=33	=33	=33	=33	=33	=33	=33	=33	=33	=33	=33	=33	=33	=33	=33
*	*	*	*	*	*	*	*	*ij	*	*	*	*	*	*	*	*
4A\	6 4	16d/LL	16ff\LL	2G\	O-	.	2d\	O-	2a\	in	2ff\	-san-	2dd\	2ff\	4f/	4dd\
.	.	16d/	16ff\	.	.	.	.	.	.	.	.	.	.	.	.	.
.	.	16d/	16ff\	.	.	.	.	.	.	.	.	.	.	.	.	.
.	.	16d/JJ	16ff\JJ	.	.	.	.	.	.	.	.	.	.	.	.	.
4F\	.	16f/LL	16dd\LL	.	.	.	.	.	.	.	.	.	.	.	4g/	4ff\
.	.	16f/	16dd\	.	.	.	.	.	.	.	.	.	.	.	.	.
.	.	16f/	16dd\	.	.	.	.	.	.	.	.	.	.	.	.	.
.	.	16f/JJ	16dd\JJ	.	.	.	.	.	.	.	.	.	.	.	.	.
4G\	5 3	16B/LL	16ddd\LL	2G\	-san-	.	2B\	-san-	2b\	ex-	2dd\	-na	2g/	2dd\	4f/	4b\
.	.	16B/	16ddd\	.	.	.	.	.	.	.	.	.	.	.	.	.
.	.	16B/	16ddd\	.	.	.	.	.	.	.	.	.	.	.	.	.
.	.	16B/JJ	16ddd\JJ	.	.	.	.	.	.	.	.	.	.	.	.	.
4GG/	.	16d/LL	16bb\LL	.	.	.	.	.	.	.	.	.	.	.	4g/	4dd\
.	.	16d/	16bb\	.	.	.	.	.	.	.	.	.	.	.	.	.
.	.	16d/	16bb\	.	.	.	.	.	.	.	.	.	.	.	.	.
.	.	16d/JJ	16bb\JJ	.	.	.	.	.	.	.	.	.	.	.	.	.
!	!	!	!	!	!	!	!	!	!	!	!LO:LB:g=original	!	!	!	!	!
=34	=34	=34	=34	=34	=34	=34	=34	=34	=34	=34	=34	=34	=34	=34	=34	=34
4C/	3 8	16e/LL	16ccc\LL	4C/	-na	.	2c\	-na	2cc\	-cel-	2ee\	In	4c/	4cc\	4e/	4cc\
*	*	*	*	*	*	*	*	*Xij	*	*	*	*	*	*	*	*
.	.	16e/	16ccc\	.	.	.	.	.	.	.	.	.	.	.	.	.
.	.	16e/	16ccc\	.	.	.	.	.	.	.	.	.	.	.	.	.
.	.	16e/JJ	16ccc\JJ	.	.	.	.	.	.	.	.	.	.	.	.	.
4G\	.	16c/LL	16gg\LL	4E/	in	.	.	.	.	.	.	.	4g/	4gg\	4g/	4gg\
.	.	16c/	16gg\	.	.	.	.	.	.	.	.	.	.	.	.	.
.	.	16c/	16gg\	.	.	.	.	.	.	.	.	.	.	.	.	.
.	.	16c/JJ	16gg\JJ	.	.	.	.	.	.	.	.	.	.	.	.	.
4E\	.	16g/LL	16ee\LL	4G/	ex-	.	[4c\	in	4g\	-sis	2ee\	ex-	4e/	4ee\	4e/	4ee\
.	.	16g/	16ee\	.	.	.	.	.	.	.	.	.	.	.	.	.
.	.	16g/	16ee\	.	.	.	.	.	.	.	.	.	.	.	.	.
.	.	16g/JJ	16ee\JJ	.	.	.	.	.	.	.	.	.	.	.	.	.
4C\	.	16e/LL	16cc\LL	4c\	.	.	4c\]	ex-	4g\	O-	.	.	4c/	4cc\	4g/	4cc\
.	.	16e/	16cc\	.	.	.	.	.	.	.	.	.	.	.	.	.
.	.	16e/	16cc\	.	.	.	.	.	.	.	.	.	.	.	.	.
.	.	16e/JJ	16cc\JJ	.	.	.	.	.	.	.	.	.	.	.	.	.
=35	=35	=35	=35	=35	=35	=35	=35	=35	=35	=35	=35	=35	=35	=35	=35	=35
4A\	6 4	16d/LL	16ff\LL	2G\	-cel-	.	2d\	-cel-	2a\	-san-	2ff\	-cel-	2dd\	2ff\	4f/	4dd\
.	.	16d/	16ff\	.	.	.	.	.	.	.	.	.	.	.	.	.
.	.	16d/	16ff\	.	.	.	.	.	.	.	.	.	.	.	.	.
.	.	16d/JJ	16ff\JJ	.	.	.	.	.	.	.	.	.	.	.	.	.
4F\	.	16f/LL	16dd\LL	.	.	.	.	.	.	.	.	.	.	.	4g/	4ff\
.	.	16f/	16dd\	.	.	.	.	.	.	.	.	.	.	.	.	.
.	.	16f/	16dd\	.	.	.	.	.	.	.	.	.	.	.	.	.
.	.	16f/JJ	16dd\JJ	.	.	.	.	.	.	.	.	.	.	.	.	.
4G\	5 3	16B/LL	16ddd\LL	2G\	-sis	.	2B\	-sis	2b\	-na	2dd\	-sis	2g/	2dd\	4f/	4b\
.	.	16B/	16ddd\	.	.	.	.	.	.	.	.	.	.	.	.	.
.	.	16B/	16ddd\	.	.	.	.	.	.	.	.	.	.	.	.	.
.	.	16B/JJ	16ddd\JJ	.	.	.	.	.	.	.	.	.	.	.	.	.
4GG/	.	16d/LL	16bb\LL	.	.	.	.	.	.	.	.	.	.	.	4g/	4dd\
.	.	16d/	16bb\	.	.	.	.	.	.	.	.	.	.	.	.	.
.	.	16d/	16bb\	.	.	.	.	.	.	.	.	.	.	.	.	.
.	.	16d/JJ	16bb\JJ	.	.	.	.	.	.	.	.	.	.	.	.	.
=36	=36	=36	=36	=36	=36	=36	=36	=36	=36	=36	=36	=36	=36	=36	=36	=36
4C/	x 3	16eLL 16G/	16ccc\LL	4C/	in	.	4c\	in	4cc\	In	4cc\	In	4c/	4cc\	4e/	4cc\
.	.	16e 16G/	16ccc\	.	.	.	.	.	.	.	.	.	.	.	.	.
.	.	16e 16G/	16ccc\	.	.	.	.	.	.	.	.	.	.	.	.	.
.	.	16eJJ 16G/	16ccc\JJ	.	.	.	.	.	.	.	.	.	.	.	.	.
4C/	6 4	16fLL 16G/	16aa\LL	4c\	ex-	.	4f\	ex-	4cc\	ex-	4aa\	ex-	4c/	4cc\	4ff\	4aa\
.	.	16f 16G/	16aa\	.	.	.	.	.	.	.	.	.	.	.	.	.
.	.	16f 16G/	16aa\	.	.	.	.	.	.	.	.	.	.	.	.	.
.	.	16fJJ 16G/	16aa\JJ	.	.	.	.	.	.	.	.	.	.	.	.	.
4C/	5 3	16eLL 16G/	16gg\LL	4c\	.	.	(4e\	-cel-	4cc\	-cel-	4gg\	-cel-	4c/	4cc\	4ee\	4gg\
.	.	16e 16G/	16gg\	.	.	.	.	.	.	.	.	.	.	.	.	.
.	.	16e 16G/	16gg\	.	.	.	.	.	.	.	.	.	.	.	.	.
.	.	16eJJ 16G/	16gg\JJ	.	.	.	.	.	.	.	.	.	.	.	.	.
4C/	6 4	16fLL 16G/	16aa\LL	4c\	-cel-	.	4f\)	.	4cc\	-sis	4aa\	-sis	4c/	4cc\	4ff\	4aa\
.	.	16f 16G/	16aa\	.	.	.	.	.	.	.	.	.	.	.	.	.
.	.	16f 16G/	16aa\	.	.	.	.	.	.	.	.	.	.	.	.	.
.	.	16fJJ 16G/	16aa\JJ	.	.	.	.	.	.	.	.	.	.	.	.	.
!	!	!LO:LB:g=original	!LO:LB:g=original	!LO:LB:g=original	!	!	!	!	!LO:LB:g=original	!	!	!	!	!	!	!
=37	=37	=37	=37	=37	=37	=37	=37	=37	=37	=37	=37	=37	=37	=37	=37	=37
*	*	*	*	*	*	*	*	*	*	*	*	*ij	*	*	*	*
4C/	5 3	16eLL 16G/	16gg\LL	4c\	-sis	.	4e\	-sis	4cc\	in	4gg\	In	4c/	4cc\	4ee\	4gg\
.	.	16e 16G/	16gg\	.	.	.	.	.	.	.	.	.	.	.	.	.
.	.	16e 16G/	16gg\	.	.	.	.	.	.	.	.	.	.	.	.	.
.	.	16eJJ 16G/	16gg\JJ	.	.	.	.	.	.	.	.	.	.	.	.	.
4E\	8 6	16eLL 16G/	16ccc\LL	4A\	O-	.	4c\	o-	4cc\	ex-	4ee\	ex-	4cc\	4ee\	4cc\	4ee\
.	.	16e 16G/	16ccc\	.	.	.	.	.	.	.	.	.	.	.	.	.
.	.	16e 16G/	16ccc\	.	.	.	.	.	.	.	.	.	.	.	.	.
.	.	16eJJ 16G/	16ccc\JJ	.	.	.	.	.	.	.	.	.	.	.	.	.
4F\	8 3	16fLL 16G/	16ddd\LL	4F\	-san-	.	(4B\	-san-	4dd\	-cel-	4ff\	-cel-	4dd\	4ff\	4dd\	4ff\
.	.	16f 16G/	16ddd\	.	.	.	.	.	.	.	.	.	.	.	.	.
.	.	16f 16G/	16ddd\	.	.	.	.	.	.	.	.	.	.	.	.	.
.	.	16fJJ 16G/	16ddd\JJ	.	.	.	.	.	.	.	.	.	.	.	.	.
4G\	5 3	16dLL 16G/	16bb\LL	4G\	-na	.	4d\)	.	4b\	-sis	4dd\	-sis	4g/	4dd\	4g/	4dd\
.	.	16d 16G/	16bb\	.	.	.	.	.	.	.	.	.	.	.	.	.
.	.	16d 16G/	16bb\	.	.	.	.	.	.	.	.	.	.	.	.	.
.	.	16dJJ 16G/	16bb\JJ	.	.	.	.	.	.	.	.	.	.	.	.	.
!	!	!	!	!	!	!	!LO:LB:g=original	!	!	!	!	!	!	!	!	!LO:LB:g=original
=38	=38	=38	=38	=38	=38	=38	=38	=38	=38	=38	=38	=38	=38	=38	=38	=38
*	*	*	*	*	*	*	*	*	*	*ij	*	*	*	*	*	*
4c\	x 3	16eLL 16G/	16ccc\LL	4c\	.	.	4c\	-na	4cc\	in	4cc\	In	4c/	4cc\	4e/	4cc\
.	.	16e 16G/	16ccc\	.	.	.	.	.	.	.	.	.	.	.	.	.
.	.	16e 16G/	16ccc\	.	.	.	.	.	.	.	.	.	.	.	.	.
.	.	16eJJ 16G/	16ccc\JJ	.	.	.	.	.	.	.	.	.	.	.	.	.
4c\	6 4	16fLL 16G/	16aa\LL	4c\	in	.	4f\	in	4cc\	ex-	4aa\	ex-	4c/	4cc\	4ff\	4aa\
.	.	16f 16G/	16aa\	.	.	.	.	.	.	.	.	.	.	.	.	.
.	.	16f 16G/	16aa\	.	.	.	.	.	.	.	.	.	.	.	.	.
.	.	16fJJ 16G/	16aa\JJ	.	.	.	.	.	.	.	.	.	.	.	.	.
4c\	5 3	16eLL 16G/	16gg\LL	4c\	ex-	.	(4e\	ex-	4cc\	-cel-	4gg\	-cel-	4c/	4cc\	4ee\	4gg\
.	.	16e 16G/	16gg\	.	.	.	.	.	.	.	.	.	.	.	.	.
.	.	16e 16G/	16gg\	.	.	.	.	.	.	.	.	.	.	.	.	.
.	.	16eJJ 16G/	16gg\JJ	.	.	.	.	.	.	.	.	.	.	.	.	.
4c\	6 4	16fLL 16G/	16aa\LL	4c\	.	.	4f\)	.	4cc\	-sis	4aa\	-sis	4c/	4cc\	4ff\	4aa\
*	*	*	*	*	*	*	*	*	*	*Xij	*	*	*	*	*	*
.	.	16f 16G/	16aa\	.	.	.	.	.	.	.	.	.	.	.	.	.
.	.	16f 16G/	16aa\	.	.	.	.	.	.	.	.	.	.	.	.	.
.	.	16fJJ 16G/	16aa\JJ	.	.	.	.	.	.	.	.	.	.	.	.	.
!LO:LB:g=original	!	!	!	!	!	!	!	!	!	!	!	!	!LO:LB:g=original	!	!	!
=39	=39	=39	=39	=39	=39	=39	=39	=39	=39	=39	=39	=39	=39	=39	=39	=39
4c\	5 3	16eLL 16G/	16gg\LL	4c\	-cel-	.	4e\	-cel-	4cc\	in	4gg\	In	4c/	4cc\	4ee\	4gg\
.	.	16e 16G/	16gg\	.	.	.	.	.	.	.	.	.	.	.	.	.
.	.	16e 16G/	16gg\	.	.	.	.	.	.	.	.	.	.	.	.	.
.	.	16e 16G/	16gg\JJ	.	.	.	.	.	.	.	.	.	.	.	.	.
4E\	8 6	16e 16G/	16ccc\LL	4A\	.	.	(4c\	.	4cc\	ex-	4ee\	ex-	4cc\	4ee\	4cc\	4ee\
.	.	16e 16G/	16ccc\	.	.	.	.	.	.	.	.	.	.	.	.	.
.	.	16e 16G/	16ccc\	.	.	.	.	.	.	.	.	.	.	.	.	.
.	.	16eJJ 16G/	16ccc\JJ	.	.	.	.	.	.	.	.	.	.	.	.	.
4F\	8 3	16fLL 16G/	16ddd\LL	(4F\	.	.	4B\)	.	(4dd\	-cel-	4ff\	-cel-	4dd\	4ff\	4dd\	4ff\
.	.	16f 16G/	16ddd\	.	.	.	.	.	.	.	.	.	.	.	.	.
.	.	16f 16G/	16ddd\	.	.	.	.	.	.	.	.	.	.	.	.	.
.	.	16fJJ 16G/	16ddd\JJ	.	.	.	.	.	.	.	.	.	.	.	.	.
4G\	5 3	16gLL 16G/	16bb\LL	4G\)	.	.	4d\	.	4b\)	.	4dd\	.	4g/	4dd\	4g/	4dd\
.	.	16g 16G/	16bb\	.	.	.	.	.	.	.	.	.	.	.	.	.
.	.	16g 16G/	16bb\	.	.	.	.	.	.	.	.	.	.	.	.	.
.	.	16gJJ 16G/	16bb\JJ	.	.	.	.	.	.	.	.	.	.	.	.	.
*	*	*Xtremolo	*Xtremolo	*	*	*	*	*	*	*	*	*	*	*	*	*
!	!	!	!	!	!	!	!	!	!	!	!	!	!	!LO:LB:g=original	!LO:LB:g=original	!
=40	=40	=40	=40	=40	=40	=40	=40	=40	=40	=40	=40	=40	=40	=40	=40	=40
4C/	x 3	4e 4G/	4ccc 4ee\	4c\	-sis	.	4c\	-sis	4cc\	-sis	4ee\	-sis	4cc\	4ee\	4cc\	4ee\
*	*	*	*	*	*	*	*	*	*	*	*	*Xij	*	*	*	*
4r	.	4r	4r	4r	.	.	4r	.	4r	.	4r	.	4r	4r	8ee\L	8gg\L
.	.	.	.	.	.	.	.	.	.	.	.	.	.	.	8ff\J	8aa\J
2r	.	2r	2r	2r	.	.	2r	.	2r	.	2r	.	4ee\	4gg\	4ee\	4gg\
.	.	.	.	.	.	.	.	.	.	.	.	.	4ee\	4gg\	4ee\	4gg\
!	!	!	!	!	!	!	!	!	!	!	!LO:LB:g=original	!	!	!	!	!
=41	=41	=41	=41	=41	=41	=41	=41	=41	=41	=41	=41	=41	=41	=41	=41	=41
4C/	.	4e 4G/	4ccc 4ee 4g\	4c\	O-	.	4G/	O-	4cc\	O-	4ee\	O-	4ee\	4gg\	4ee\	4gg\
4r	.	4r	4r	4r	.	.	4r	.	4r	.	4r	.	8cc\L	8ee\L	8cc\L	8ee\L
.	.	.	.	.	.	.	.	.	.	.	.	.	8dd\J	8ff\J	8dd\J	8ff\J
2r	.	2r	2r	2r	.	.	2r	.	2r	.	2r	.	4cc\	4ee\	4cc\	4ee\
.	.	.	.	.	.	.	.	.	.	.	.	.	4cc\	4ee\	4cc\	4ee\
=42	=42	=42	=42	=42	=42	=42	=42	=42	=42	=42	=42	=42	=42	=42	=42	=42
2C/	.	2e 2G/	2ccc 2ee 2g\	2c\	-san-	.	2G/	-san-	[2cc\	-san-	2ee\	-san-	2cc\	2cc\	2cc\	2ee\
2C/	.	2cc 2e 2G/	2ccc 2ee 2g\	2c\	.	.	2G/	.	2cc\]	.	2ee\	.	2g/	2g/	2ee\	2gg\
=43	=43	=43	=43	=43	=43	=43	=43	=43	=43	=43	=43	=43	=43	=43	=43	=43
2C/	.	2cc 2e 2G/	2ccc 2ee 2g\	2c\	-na	.	2G/	-na	2cc\	-na	2ee\	-na	2c/	2c/	2cc\	2ee\
2r	.	2r	2r	2r	.	.	2r	.	2r	.	2r	.	2r	2r	2r	2r
!	!	!LO:TX:b:rj:t=Benedictus Verte Cito	!	!	!	!	!	!	!	!	!	!	!	!	!	!LO:TX:b:rj:t=Benedictus Verte
!	!	!LO:PB:g=original	!LO:LB:g=original	!LO:LB:g=original	!	!	!LO:LB:g=original	!	!	!	!	!	!LO:LB:g=original	!LO:LB:g=original	!LO:LB:g=original	!LO:PB:g=original
=44||	=44||	=44||	=44||	=44||	=44||	=44||	=44||	=44||	=44||	=44||	=44||	=44||	=44||	=44||	=44||	=44||
*M3/4	*	*M3/4	*M3/4	*M3/4	*	*	*M3/4	*	*M3/4	*	*M3/4	*	*M3/4	*M3/4	*M3/4	*M3/4
!	!	!	!	!LO:TX:a:B:t=adagio	!	!	!	!	!	!	!	!	!LO:TX:b:t=Benedictus	!LO:TX:b:t=Benedictus	!LO:TX:b:t=Benedictus	!LO:TX:a:B:t=Adagio
!LO:TX:t=P:problem:mixed beam	!	!LO:TX:a:B:t=Adagio	!	!LO:TX:a:t=Solo	!	!	!LO:TX:a:t=Benedi\nctus Tacet	!	!LO:TX:a:t=Benedictus Tacet	!	!LO:TX:a:t=Benedictus Tacet	!	!LO:TX:a:B:t=adagio	!LO:TX:a:B:t=Adagio	!LO:TX:a:B:t=adagio	!LO:TX:a:t=7
!LO:TX:b:t=Benedictus	!	!LO:TX:b:t=Benedictus	!LO:TX:b:t=Benedictus	!LO:N:vis=00	!	!	!	!	!	!	!	!	!	!	!	!LO:TX:b:t=Benedictus
!LO:TX:a:B:t=Adagio	!	!	!	!	!	!	!	!	!	!	!	!	!LO:N:vis=00	!LO:N:vis=00	!LO:N:vis=00	!LO:N:vis=00
8C/L	5 3	16c/LL	16gg|\LL	0.r	.	.	2.ryy	.	2.ryy	.	2.ryy	.	0.r	0.r	0.r	0.r
.	.	16e/	16ee\	.	.	.	.	.	.	.	.	.	.	.	.	.
8c\J	.	16g/	16dd\	.	.	.	.	.	.	.	.	.	.	.	.	.
.	.	16e/JJ	16cc\JJ	.	.	.	.	.	.	.	.	.	.	.	.	.
*tremolo	*	*rep	*	*	*	*	*	*	*	*	*	*	*	*	*	*
8c\L	x 64	16c/LL	4cc\	.	.	.	.	.	.	.	.	.	.	.	.	.
.	.	16e/	.	.	.	.	.	.	.	.	.	.	.	.	.	.
8c\	.	16g/	.	.	.	.	.	.	.	.	.	.	.	.	.	.
.	.	16e/JJ	.	.	.	.	.	.	.	.	.	.	.	.	.	.
*	*	*Xrep	*	*	*	*	*	*	*	*	*	*	*	*	*	*
8c\	.	16c/LL	16cc\LL	.	.	.	.	.	.	.	.	.	.	.	.	.
.	.	16f/	16ccc\	.	.	.	.	.	.	.	.	.	.	.	.	.
8c\J	.	16a/	16bb\	.	.	.	.	.	.	.	.	.	.	.	.	.
.	.	16f/JJ	16aa\JJ	.	.	.	.	.	.	.	.	.	.	.	.	.
=45	=45	=45	=45	=45	=45	=45	=45	=45	=45	=45	=45	=45	=45	=45	=45	=45
*Xtremolo	*	*rep	*	*	*	*	*	*	*	*	*	*	*	*	*	*
!LO:TX:t=P:problem:mixed beam	!	!	!	!	!	!	!	!	!	!	!	!	!	!	!	!
8C/L	.	16c/LL	16aa\LL	.	.	.	2.ryy	.	2.ryy	.	2.ryy	.	.	.	.	.
.	.	16f/	16bb\	.	.	.	.	.	.	.	.	.	.	.	.	.
8c\J	.	16a/	16ccc\	.	.	.	.	.	.	.	.	.	.	.	.	.
.	.	16f/JJ	16aa\JJ	.	.	.	.	.	.	.	.	.	.	.	.	.
*tremolo	*	*Xrep	*	*	*	*	*	*	*	*	*	*	*	*	*	*
8c\L	x 35	16c/LL	4gg\	.	.	.	.	.	.	.	.	.	.	.	.	.
.	.	16e/	.	.	.	.	.	.	.	.	.	.	.	.	.	.
8c\	.	16g/	.	.	.	.	.	.	.	.	.	.	.	.	.	.
.	.	16e/JJ	.	.	.	.	.	.	.	.	.	.	.	.	.	.
*	*	*rep	*	*	*	*	*	*	*	*	*	*	*	*	*	*
8c\	.	16c/LL	16gg\LL	.	.	.	.	.	.	.	.	.	.	.	.	.
.	.	16e/	16ccc\	.	.	.	.	.	.	.	.	.	.	.	.	.
8c\J	.	16g/	16eee\	.	.	.	.	.	.	.	.	.	.	.	.	.
.	.	16e/JJ	16ggg\JJ	.	.	.	.	.	.	.	.	.	.	.	.	.
*Xtremolo	*	*Xrep	*	*	*	*	*	*	*	*	*	*	*	*	*	*
=46	=46	=46	=46	=46	=46	=46	=46	=46	=46	=46	=46	=46	=46	=46	=46	=46
!LO:TX:t=P:problem:ósemki i tremolo połączone belką	!	!	!	!	!	!	!	!	!	!	!	!	!	!	!	!
!LO:TX:t=P:problem:mixed beam	!	!	!	!	!	!	!	!	!	!	!	!	!	!	!	!
8C\L	.	16c/LL	16ggg\LL	.	.	.	2.ryy	.	2.ryy	.	2.ryy	.	.	.	.	.
.	.	16f/	16aa\JJ	.	.	.	.	.	.	.	.	.	.	.	.	.
8c\J	6 4	16a/	4aa\	.	.	.	.	.	.	.	.	.	.	.	.	.
.	.	16f/JJ	.	.	.	.	.	.	.	.	.	.	.	.	.	.
*tremolo	*	*rep	*	*	*	*	*	*	*	*	*	*	*	*	*	*
8c\L	.	16c/LL	.	.	.	.	.	.	.	.	.	.	.	.	.	.
.	.	16f/	.	.	.	.	.	.	.	.	.	.	.	.	.	.
8c\	.	16a/	16bb\LL	.	.	.	.	.	.	.	.	.	.	.	.	.
.	.	16f/JJ	16ccc\JJ	.	.	.	.	.	.	.	.	.	.	.	.	.
*	*	*Xrep	*	*	*	*	*	*	*	*	*	*	*	*	*	*
*	*	*rep	*	*	*	*	*	*	*	*	*	*	*	*	*	*
8c\	.	16c/LL	16ddd\LL	.	.	.	.	.	.	.	.	.	.	.	.	.
.	.	16f/	16eee\	.	.	.	.	.	.	.	.	.	.	.	.	.
8c\J	.	16a/	16fff\	.	.	.	.	.	.	.	.	.	.	.	.	.
.	.	16f/JJ	16aa\JJ	.	.	.	.	.	.	.	.	.	.	.	.	.
*Xtremolo	*	*Xrep	*	*	*	*	*	*	*	*	*	*	*	*	*	*
!LO:LB:g=original	!	!	!LO:LB:g=original	!	!	!	!	!	!	!	!	!	!	!	!	!
=47	=47	=47	=47	=47	=47	=47	=47	=47	=47	=47	=47	=47	=47	=47	=47	=47
*tremolo	*	*	*	*	*	*	*	*	*	*	*	*	*	*	*	*
!LO:TX:t=P:problem:ósemki i tremolo połączone belką	!	!	!	!	!	!	!	!	!	!	!	!	!	!	!	!
8C/L	5 3	16c/LL	16ff#X\LL	.	.	.	2.ryy	.	2.ryy	.	2.ryy	.	.	.	.	.
.	.	16e/	16gg\	.	.	.	.	.	.	.	.	.	.	.	.	.
8C/	.	16g/	16aa\	.	.	.	.	.	.	.	.	.	.	.	.	.
.	.	16e/JJ	16gg\JJ	.	.	.	.	.	.	.	.	.	.	.	.	.
*	*	*rep	*	*	*	*	*	*	*	*	*	*	*	*	*	*
8C/	.	16c/LL	4gg\	.	.	.	.	.	.	.	.	.	.	.	.	.
.	.	16e/	.	.	.	.	.	.	.	.	.	.	.	.	.	.
8C/J	.	16g/	.	.	.	.	.	.	.	.	.	.	.	.	.	.
.	.	16e/JJ	.	.	.	.	.	.	.	.	.	.	.	.	.	.
*Xtremolo	*	*Xrep	*	*	*	*	*	*	*	*	*	*	*	*	*	*
*	*	*rep	*	*	*	*	*	*	*	*	*	*	*	*	*	*
8E/L	6 3	16c/LL	16gg\LL	.	.	.	.	.	.	.	.	.	.	.	.	.
.	.	16e/	16eee\	.	.	.	.	.	.	.	.	.	.	.	.	.
8E/J	.	16g/	16ddd\	.	.	.	.	.	.	.	.	.	.	.	.	.
.	.	16e/JJ	16ccc\JJ	.	.	.	.	.	.	.	.	.	.	.	.	.
*	*	*Xrep	*	*	*	*	*	*	*	*	*	*	*	*	*	*
!	!	!LO:LB:g=original	!	!	!	!	!	!	!	!	!	!	!	!	!	!
=48	=48	=48	=48	=48	=48	=48	=48	=48	=48	=48	=48	=48	=48	=48	=48	=48
*tremolo	*	*	*	*	*	*	*	*	*	*	*	*	*	*	*	*
!	!	!	!	!LO:N:vis=00	!	!	!	!	!	!	!	!	!LO:N:vis=0	!LO:N:vis=0	!LO:N:vis=0	!LO:N:vis=0
8D/L	5 3	16d/LL	16ccc\LL	0.r	.	.	2.ryy	.	2.ryy	.	2.ryy	.	1.r	1.r	1.r	1.r
.	.	16f/	16bb\	.	.	.	.	.	.	.	.	.	.	.	.	.
8D/	.	16g/	16ddd\	.	.	.	.	.	.	.	.	.	.	.	.	.
.	.	16f/JJ	16ccc\JJ	.	.	.	.	.	.	.	.	.	.	.	.	.
*	*	*rep	*	*	*	*	*	*	*	*	*	*	*	*	*	*
8D/	.	16d/LL	4bb\	.	.	.	.	.	.	.	.	.	.	.	.	.
.	.	16f/	.	.	.	.	.	.	.	.	.	.	.	.	.	.
8D/J	.	16g/	.	.	.	.	.	.	.	.	.	.	.	.	.	.
.	.	16f/JJ	.	.	.	.	.	.	.	.	.	.	.	.	.	.
*Xtremolo	*	*Xrep	*	*	*	*	*	*	*	*	*	*	*	*	*	*
*	*	*rep	*	*	*	*	*	*	*	*	*	*	*	*	*	*
8GG/L	7 5	16d/LL	16gg\LL	.	.	.	.	.	.	.	.	.	.	.	.	.
.	.	16f/	16fff\	.	.	.	.	.	.	.	.	.	.	.	.	.
8GG/J	.	16g/	16eee\	.	.	.	.	.	.	.	.	.	.	.	.	.
.	.	16f/JJ	16ddd\JJ	.	.	.	.	.	.	.	.	.	.	.	.	.
*	*	*Xrep	*	*	*	*	*	*	*	*	*	*	*	*	*	*
=49	=49	=49	=49	=49	=49	=49	=49	=49	=49	=49	=49	=49	=49	=49	=49	=49
*tremolo	*	*	*	*	*	*	*	*	*	*	*	*	*	*	*	*
8C/L	.	16c/LL	16ddd\LL	.	.	.	2.ryy	.	2.ryy	.	2.ryy	.	.	.	.	.
.	.	16e/	16ccc\	.	.	.	.	.	.	.	.	.	.	.	.	.
8C/	.	16g/	16eee\	.	.	.	.	.	.	.	.	.	.	.	.	.
.	.	16e/JJ	16ddd\JJ	.	.	.	.	.	.	.	.	.	.	.	.	.
*	*	*rep	*	*	*	*	*	*	*	*	*	*	*	*	*	*
8C/	.	16c/LL	4ccc\	.	.	.	.	.	.	.	.	.	.	.	.	.
.	.	16e/	.	.	.	.	.	.	.	.	.	.	.	.	.	.
8C/J	.	16g/	.	.	.	.	.	.	.	.	.	.	.	.	.	.
.	.	16e/JJ	.	.	.	.	.	.	.	.	.	.	.	.	.	.
*Xtremolo	*	*Xrep	*	*	*	*	*	*	*	*	*	*	*	*	*	*
8E/L	.	16e/LL	16gg\LL	.	.	.	.	.	.	.	.	.	.	.	.	.
.	.	16g/	16ggg\	.	.	.	.	.	.	.	.	.	.	.	.	.
8E/J	.	16cc/	16fff\	.	.	.	.	.	.	.	.	.	.	.	.	.
.	.	16g/JJ	16eee\JJ	.	.	.	.	.	.	.	.	.	.	.	.	.
=50	=50	=50	=50	=50	=50	=50	=50	=50	=50	=50	=50	=50	=50	=50	=50	=50
!LO:TX:t=P:problem:mixed beam	!	!	!	!	!	!	!	!	!	!	!	!	!	!	!	!
8F\L	.	16f/LL	16eee\LL	.	.	.	2.ryy	.	2.ryy	.	2.ryy	.	2.r	2.r	2.r	2.r
.	.	16a/	16fff\	.	.	.	.	.	.	.	.	.	.	.	.	.
!	!	!	!LO:TX:t=P:problem:niewyraźny znak	!	!	!	!	!	!	!	!	!	!	!	!	!
8F\	.	16dd/	16aa\	.	.	.	.	.	.	.	.	.	.	.	.	.
.	.	16a/JJ	16ddd|\JJ	.	.	.	.	.	.	.	.	.	.	.	.	.
8G\	.	16g/LL	8.ccc|\L	.	.	.	.	.	.	.	.	.	.	.	.	.
.	.	16cc/	.	.	.	.	.	.	.	.	.	.	.	.	.	.
8G\	.	16ee/	.	.	.	.	.	.	.	.	.	.	.	.	.	.
.	.	16cc/JJ	16ddd\Jk	.	.	.	.	.	.	.	.	.	.	.	.	.
8GG/	.	16g/LL	4dddT\	.	.	.	.	.	.	.	.	.	.	.	.	.
.	.	16b/	.	.	.	.	.	.	.	.	.	.	.	.	.	.
8GG/J	.	16dd/	.	.	.	.	.	.	.	.	.	.	.	.	.	.
.	.	16b/JJ	.	.	.	.	.	.	.	.	.	.	.	.	.	.
=51	=51	=51	=51	=51	=51	=51	=51	=51	=51	=51	=51	=51	=51	=51	=51	=51
!LO:SIC:v:s=4C/	!	!	!	!	!	!	!	!	!	!	!	!	!	!	!	!
4BB/	.	4cc\	4ccc\	.	.	.	2.ryy	.	2.ryy	.	2.ryy	.	4e/	4cc\	8r	8r
.	.	.	.	.	.	.	.	.	.	.	.	.	.	.	16cc\LL	16ee\LL
.	.	.	.	.	.	.	.	.	.	.	.	.	.	.	16dd\JJ	16ff\JJ
4r	.	4r	4r	.	.	.	.	.	.	.	.	.	4r	4r	8ee\L	8gg\L
.	.	.	.	.	.	.	.	.	.	.	.	.	.	.	8aa\	8ccc\
4GG/	.	4r	4r	.	.	.	.	.	.	.	.	.	4g/	4dd\	8gg\	8bb\
.	.	.	.	.	.	.	.	.	.	.	.	.	.	.	8ff\J	8aa\J
=52	=52	=52	=52	=52	=52	=52	=52	=52	=52	=52	=52	=52	=52	=52	=52	=52
!	!	!	!	!LO:N:vis=0	!	!	!	!	!	!	!	!	!	!	!	!
4C/	.	4e/	4cc\	1.r	.	.	2.ryy	.	2.ryy	.	2.ryy	.	4cc\	4ee\	8ee\L	8gg\L
.	.	.	.	.	.	.	.	.	.	.	.	.	.	.	16cc\L	16ee\L
.	.	.	.	.	.	.	.	.	.	.	.	.	.	.	16dd\JJ	16ff\JJ
4r	.	4r	4r	.	.	.	.	.	.	.	.	.	4r	4r	8ee\L	8gg\L
.	.	.	.	.	.	.	.	.	.	.	.	.	.	.	8ff\	8aa\
4GG/	.	4g/	4b 4d/	.	.	.	.	.	.	.	.	.	4g/	4dd\	8ee\	8gg\
.	.	.	.	.	.	.	.	.	.	.	.	.	.	.	8dd\J	8ff\J
!	!	!	!LO:LB:g=original	!	!	!	!	!	!	!	!	!	!	!	!	!
=53	=53	=53	=53	=53	=53	=53	=53	=53	=53	=53	=53	=53	=53	=53	=53	=53
4GG/	.	4f/	4b 4d/	.	.	.	2.ryy	.	2.ryy	.	2.ryy	.	4dd\	4dd\	4dd\	4ff\
!LO:TX:t=P:problem:mixed beam	!	!	!	!	!	!	!	!	!	!	!	!	!	!	!	!
16C/LL	.	4e/	4cc 4e/	.	.	.	.	.	.	.	.	.	16cc\LL	16cc/LL	8cc\L	8ee\L
16c\	.	.	.	.	.	.	.	.	.	.	.	.	16cc\	16cc/	.	.
16G\	.	.	.	.	.	.	.	.	.	.	.	.	16g\	16g/	8ee\	8gg\
16E\JJ	.	.	.	.	.	.	.	.	.	.	.	.	16e\JJ	16e/JJ	.	.
4C/	.	4r	4r	.	.	.	.	.	.	.	.	.	4c/	4c/	8cc\J	8ee\J
.	.	.	.	.	.	.	.	.	.	.	.	.	.	.	8r	8r
=54	=54	=54	=54	=54	=54	=54	=54	=54	=54	=54	=54	=54	=54	=54	=54	=54
!LO:TX:t=P:problem:mixed beam	!	!	!	!	!	!	!	!	!	!	!	!	!LO:N:vis=00	!LO:N:vis=00	!LO:N:vis=00	!LO:N:vis=00
!LO:TX:t=P:problem:ósemki i tremolo połączone belką	!	!	!	!	!	!	!	!	!	!	!	!	!	!	!	!
8C/L	5 3	16c/LL	(16e/LL	16G\LL	Be-	Ro-	2.ryy	.	2.ryy	.	2.ryy	.	0.r	0.r	0.r	0.r
.	.	16d/	16f/)	16E\	.	.	.	.	.	.	.	.	.	.	.	.
8c\J	.	16e/	16g|/	16D\	.	.	.	.	.	.	.	.	.	.	.	.
.	.	16e/JJ	16g|/JJ	16C\JJ	.	.	.	.	.	.	.	.	.	.	.	.
*tremolo	*	*rep	*	*	*	*	*	*	*	*	*	*	*	*	*	*
8c\L	6 4	16c/LL	(16e/LL	4C\	.	.	.	.	.	.	.	.	.	.	.	.
.	.	16d/	16f/)	.	.	.	.	.	.	.	.	.	.	.	.	.
8c\	.	16e/	16g|/	.	.	.	.	.	.	.	.	.	.	.	.	.
.	.	16e/JJ	16g|/JJ	.	.	.	.	.	.	.	.	.	.	.	.	.
*	*	*Xrep	*	*	*	*	*	*	*	*	*	*	*	*	*	*
8c\	.	16d/LL	(16f/LL	16C\LL	.	.	.	.	.	.	.	.	.	.	.	.
.	.	16e/	16g/)	16c\	.	.	.	.	.	.	.	.	.	.	.	.
8c\J	.	16f/	16a|/	16B\	-ne-	-sa	.	.	.	.	.	.	.	.	.	.
.	.	16f/JJ	16a|/JJ	16A\JJ	.	.	.	.	.	.	.	.	.	.	.	.
*Xtremolo	*	*	*	*	*	*	*	*	*	*	*	*	*	*	*	*
!	!	!LO:LB:g=original	!	!	!	!	!	!	!	!	!	!	!	!	!	!
=55	=55	=55	=55	=55	=55	=55	=55	=55	=55	=55	=55	=55	=55	=55	=55	=55
!LO:TX:t=P:problem:mixed beam	!	!LO:TX:b:t=d	!	!	!	!	!	!	!	!	!	!	!	!	!	!
!	!	!LO:SIC:v=16d/LL	!	!	!	!	!	!	!	!	!	!	!	!	!	!
8C/L	.	16c/LL	16f/LL	16A\LL	-di-	mi-	2.ryy	.	2.ryy	.	2.ryy	.	.	.	.	.
.	.	16e/	16g/	16B\	.	.	.	.	.	.	.	.	.	.	.	.
8c\J	.	16f/	16a/	16c\	.	.	.	.	.	.	.	.	.	.	.	.
.	.	16f/JJ	16a/JJ	16A\JJ	.	-sti-	.	.	.	.	.	.	.	.	.	.
*tremolo	*	*	*	*	*	*	*	*	*	*	*	*	*	*	*	*
8c\L	.	16c/LL	16e/LL	4G\	-ctus	-ca	.	.	.	.	.	.	.	.	.	.
.	.	16d/	16f/	.	.	.	.	.	.	.	.	.	.	.	.	.
8c\	.	16e/	16g/	.	.	.	.	.	.	.	.	.	.	.	.	.
.	.	16e/JJ	16g/JJ	.	.	.	.	.	.	.	.	.	.	.	.	.
8c\	.	16c/LL	16e/LL	16F#X\LL	qui	Ju-	.	.	.	.	.	.	.	.	.	.
.	.	16d/	16f/	16G\	.	.	.	.	.	.	.	.	.	.	.	.
8c\J	.	16e/	16g/	16c\	.	.	.	.	.	.	.	.	.	.	.	.
.	.	16e/JJ	16g/JJ	16e\JJ	.	.	.	.	.	.	.	.	.	.	.	.
=56	=56	=56	=56	=56	=56	=56	=56	=56	=56	=56	=56	=56	=56	=56	=56	=56
8G\L	.	16B/LL	16d/LL	4d\	ve-	-ris	2.ryy	.	2.ryy	.	2.ryy	.	.	.	.	.
.	.	16c/	16e/	.	.	.	.	.	.	.	.	.	.	.	.	.
8G\	.	16d/	16f/	.	.	.	.	.	.	.	.	.	.	.	.	.
.	.	16d/JJ	16f/JJ	.	.	.	.	.	.	.	.	.	.	.	.	.
*	*	*rep	*	*	*	*	*	*	*	*	*	*	*	*	*	*
8G\	.	16B/LL	16d/LL	16c\LL	.	da-	.	.	.	.	.	.	.	.	.	.
.	.	16c/	16e/	16B\	.	.	.	.	.	.	.	.	.	.	.	.
8G\	.	16d/	16f/	16A\	.	.	.	.	.	.	.	.	.	.	.	.
.	.	16d/JJ	16f/JJ	16G\JJ	.	.	.	.	.	.	.	.	.	.	.	.
*	*	*Xrep	*	*	*	*	*	*	*	*	*	*	*	*	*	*
8G\	.	16d/LL	16b\LL	16A\LL	.	-vi-	.	.	.	.	.	.	.	.	.	.
.	.	16e/	16cc\	16c\	.	.	.	.	.	.	.	.	.	.	.	.
8G\J	.	16f/	16dd\	16B\	.	-di-	.	.	.	.	.	.	.	.	.	.
.	.	16f/JJ	16dd\JJ	16d\JJ	.	.	.	.	.	.	.	.	.	.	.	.
*Xtremolo	*	*	*	*	*	*	*	*	*	*	*	*	*	*	*	*
!	!	!	!	!LO:LB:g=original	!	!	!	!	!	!	!	!	!	!	!	!
=57	=57	=57	=57	=57	=57	=57	=57	=57	=57	=57	=57	=57	=57	=57	=57	=57
!	!	!LO:TX:t=P:problem:mixed beam	!	!	!	!	!	!	!	!	!	!	!	!	!	!
4C/	.	8e/L	8cc\L	4c\	-nit	-ca	2.ryy	.	2.ryy	.	2.ryy	.	.	.	.	.
.	.	16cc\L	16ee\L	.	.	.	.	.	.	.	.	.	.	.	.	.
.	.	16dd\JJ	16ff\JJ	.	.	.	.	.	.	.	.	.	.	.	.	.
4c\	.	8ee\L	8gg\L	4r	.	.	.	.	.	.	.	.	.	.	.	.
.	.	8ee\J	8gg\J	.	.	.	.	.	.	.	.	.	.	.	.	.
4r	.	16ff\LL	16aa\LL	4r	.	.	.	.	.	.	.	.	.	.	.	.
.	.	16ee\	16gg\	.	.	.	.	.	.	.	.	.	.	.	.	.
.	.	16dd\	16ff\	.	.	.	.	.	.	.	.	.	.	.	.	.
.	.	16cc\JJ	16ee\JJ	.	.	.	.	.	.	.	.	.	.	.	.	.
!LO:LB:g=original	!	!	!LO:LB:g=original	!	!	!	!	!	!	!	!	!	!	!	!	!
=58	=58	=58	=58	=58	=58	=58	=58	=58	=58	=58	=58	=58	=58	=58	=58	=58
!LO:TX:t=P:problem:mixed beam	!	!	!	!	!	!	!	!	!	!	!	!	!	!	!	!
8F\L	.	16d/LL	16dd/LL	4d\	qui	Tu-	2.ryy	.	2.ryy	.	2.ryy	.	2.r	2.r	2.r	2.r
.	.	16f/	16b/	.	.	.	.	.	.	.	.	.	.	.	.	.
8F\	.	16g/	16g/	.	.	.	.	.	.	.	.	.	.	.	.	.
.	.	16f/JJ	16f/JJ	.	.	.	.	.	.	.	.	.	.	.	.	.
8G\	.	16B/LL	16d/LL	16c\LL	ve-	.	.	.	.	.	.	.	.	.	.	.
.	.	16c/	16e/	16B\	.	.	.	.	.	.	.	.	.	.	.	.
8G\	.	16d/	16f/	16A\	.	-ris	.	.	.	.	.	.	.	.	.	.
.	.	16d/JJ	16f/JJ	16G\JJ	.	.	.	.	.	.	.	.	.	.	.	.
*	*	*rep	*	*	*	*	*	*	*	*	*	*	*	*	*	*
8GG/	.	16B/LL	16d/LL	16A\LL	.	da-	.	.	.	.	.	.	.	.	.	.
.	.	16c/	16e/	16c\	.	.	.	.	.	.	.	.	.	.	.	.
8GG/J	.	16d/	16f/	16B\	.	-vi-	.	.	.	.	.	.	.	.	.	.
.	.	16d/JJ	16f/JJ	16d\JJ	.	.	.	.	.	.	.	.	.	.	.	.
*	*	*Xrep	*	*	*	*	*	*	*	*	*	*	*	*	*	*
!	!	!	!	!	!	!	!	!	!	!	!	!	!	!	!	!LO:LB:g=original
=59	=59	=59	=59	=59	=59	=59	=59	=59	=59	=59	=59	=59	=59	=59	=59	=59
4C/	.	4e 4G/	4e 4G/	4c\	.	-di-	2.ryy	.	2.ryy	.	2.ryy	.	4e/	4cc\	8r	8r
.	.	.	.	.	.	.	.	.	.	.	.	.	.	.	16cc\LL	16ee\LL
.	.	.	.	.	.	.	.	.	.	.	.	.	.	.	16dd\JJ	16ff\JJ
4r	.	4r	4r	4C/	-nit	-ca	.	.	.	.	.	.	4r	4r	8ee\L	8gg\L
.	.	.	.	.	.	.	.	.	.	.	.	.	.	.	8aa\	8ccc\
4GG/	.	4f 4G/	4b 4d/	4r	.	.	.	.	.	.	.	.	4g/	4dd\	8gg\	8bb\
.	.	.	.	.	.	.	.	.	.	.	.	.	.	.	8ff\J	8aa\J
!	!	!	!	!	!	!	!	!	!	!	!	!	!	!	!LO:LB:g=original	!
=60	=60	=60	=60	=60	=60	=60	=60	=60	=60	=60	=60	=60	=60	=60	=60	=60
!	!	!	!	!LO:N:vis=0	!	!	!	!	!	!	!	!	!	!	!	!
4C/	.	4e 4G/	4cc 4e/	1.r	.	.	2.ryy	.	2.ryy	.	2.ryy	.	4cc\	4ee\	8ee\L	8gg\L
.	.	.	.	.	.	.	.	.	.	.	.	.	.	.	16cc\L	16ee\L
.	.	.	.	.	.	.	.	.	.	.	.	.	.	.	16dd\JJ	16ff\JJ
4r	.	4r	4r	.	.	.	.	.	.	.	.	.	4r	4r	8ee\L	8gg\L
.	.	.	.	.	.	.	.	.	.	.	.	.	.	.	8ff\	8aa\
4GG/	.	4f 4G/	4b 4d/	.	.	.	.	.	.	.	.	.	4g/	4dd\	8ee\	8gg\
.	.	.	.	.	.	.	.	.	.	.	.	.	.	.	8dd\J	8ff\J
!	!	!LO:LB:g=original	!	!	!	!	!	!	!	!	!	!	!	!	!	!
=61	=61	=61	=61	=61	=61	=61	=61	=61	=61	=61	=61	=61	=61	=61	=61	=61
4GG/	.	4f 4G/	4b 4d/	.	.	.	2.ryy	.	2.ryy	.	2.ryy	.	4dd\	4dd\	4dd\	4ff\
16C/LL	.	4e 4G/	4cc 4e/	.	.	.	.	.	.	.	.	.	16cc\LL	16cc/LL	8cc\L	8ee\L
16C/	.	.	.	.	.	.	.	.	.	.	.	.	16cc\	16cc/	.	.
16GG/	.	.	.	.	.	.	.	.	.	.	.	.	16g\	16g/	8ee\	8gg\
16EE/JJ	.	.	.	.	.	.	.	.	.	.	.	.	16e\JJ	16e/JJ	.	.
4CC/	.	4r	4r	.	.	.	.	.	.	.	.	.	4c/	4c/	8cc\J	8ee\J
.	.	.	.	.	.	.	.	.	.	.	.	.	.	.	8r	8r
!	!	!	!	!	!	!	!	!	!	!	!	!	!LO:LB:g=original	!	!	!
=62	=62	=62	=62	=62	=62	=62	=62	=62	=62	=62	=62	=62	=62	=62	=62	=62
!	!	!	!	!	!	!	!	!	!	!	!	!	!	!LO:TX:a:t=25	!	!LO:TX:a:t=25
!	!	!	!	!	!	!	!	!	!	!	!	!	!LO:N:vis=00	!	!LO:N:vis=00	!LO:N:vis=00
8c\	.	16r	16r	16C\LL	Be-	Tu-	2.ryy	.	2.ryy	.	2.ryy	.	0.r	2.r	0.r	0.r
.	.	16e/LL	16g/LL	16E\	.	.	.	.	.	.	.	.	.	.	.	.
8r	.	16e/	16g/	16G\	.	.	.	.	.	.	.	.	.	.	.	.
.	.	16e/JJ	16g/JJ	16c\JJ	.	.	.	.	.	.	.	.	.	.	.	.
8c\	.	16r	16r	4.e\	.	.	.	.	.	.	.	.	.	.	.	.
.	.	16e/LL	16g/LL	.	.	.	.	.	.	.	.	.	.	.	.	.
8r	.	16e/	16g/	.	.	.	.	.	.	.	.	.	.	.	.	.
.	.	16e/JJ	16g/JJ	.	.	.	.	.	.	.	.	.	.	.	.	.
8c\	.	16r	16r	.	.	.	.	.	.	.	.	.	.	.	.	.
.	.	16e/LL	16g/LL	.	.	.	.	.	.	.	.	.	.	.	.	.
8r	.	16e/	16g/	16d\LL	-ne-	-ris	.	.	.	.	.	.	.	.	.	.
.	.	16e/JJ	16g/JJ	16c\JJ	.	e-	.	.	.	.	.	.	.	.	.	.
=63	=63	=63	=63	=63	=63	=63	=63	=63	=63	=63	=63	=63	=63	=63	=63	=63
8B\	6 3	16r	16r	8.d\L	-di-	-bur-	2.ryy	.	2.ryy	.	2.ryy	.	.	2.r	.	.
.	.	16d/LL	16g/LL	.	.	.	.	.	.	.	.	.	.	.	.	.
8r	.	16d/	16g/	.	.	.	.	.	.	.	.	.	.	.	.	.
.	.	16d/JJ	16g/JJ	16B\Jk	.	-ne-	.	.	.	.	.	.	.	.	.	.
8B\	.	16r	16r	4G\	-ctus	-a	.	.	.	.	.	.	.	.	.	.
.	.	16d/LL	16g/LL	.	.	.	.	.	.	.	.	.	.	.	.	.
8r	.	16d/	16g/	.	.	.	.	.	.	.	.	.	.	.	.	.
.	.	16d/JJ	16g/JJ	.	.	.	.	.	.	.	.	.	.	.	.	.
!	!	!	!LO:LB:g=original	!	!	!	!	!	!	!	!	!	!	!	!	!
8B\	.	16r	16r	8r	.	.	.	.	.	.	.	.	.	.	.	.
.	.	16d/LL	16g/LL	.	.	.	.	.	.	.	.	.	.	.	.	.
8r	.	16d/	16g/	16B\LL	qui	o-	.	.	.	.	.	.	.	.	.	.
.	.	16d/JJ	16g/JJ	16d\JJ	.	.	.	.	.	.	.	.	.	.	.	.
!	!	!	!	!LO:LB:g=original	!	!	!	!	!	!	!	!	!	!	!	!
=64	=64	=64	=64	=64	=64	=64	=64	=64	=64	=64	=64	=64	=64	=64	=64	=64
8c\	6 3	16r	16r	16d\LL	ve-	.	2.ryy	.	2.ryy	.	2.ryy	.	.	2.r	.	.
.	.	16e/LL	16a/LL	16c\	.	.	.	.	.	.	.	.	.	.	.	.
8r	.	16e/	16a/	16c\	.	.	.	.	.	.	.	.	.	.	.	.
.	.	16e/JJ	16a/JJ	16B\JJ	.	.	.	.	.	.	.	.	.	.	.	.
8c\	.	16r	16r	16B\LL	.	.	.	.	.	.	.	.	.	.	.	.
.	.	16e/LL	16a/LL	16A\	.	.	.	.	.	.	.	.	.	.	.	.
8r	.	16e/	16a/	16A\	.	-ra	.	.	.	.	.	.	.	.	.	.
.	.	16e/JJ	16a/JJ	16B\JJ	.	.	.	.	.	.	.	.	.	.	.	.
!	!	!	!	!LO:SIC:v:s=16c#\LL	!	!	!	!	!	!	!	!	!	!	!	!
8c#X\	5 3	16r	16r	16c\LL	.	.	.	.	.	.	.	.	.	.	.	.
.	.	16e/LL	16g/LL	16A\	.	.	.	.	.	.	.	.	.	.	.	.
8r	.	16e/	16g/	16E\	.	pro	.	.	.	.	.	.	.	.	.	.
.	.	16e/JJ	16g/JJ	16A\JJ	.	.	.	.	.	.	.	.	.	.	.	.
=65	=65	=65	=65	=65	=65	=65	=65	=65	=65	=65	=65	=65	=65	=65	=65	=65
4d\	6 4	4g/	4b\	4G\	.	no-	2.ryy	.	2.ryy	.	2.ryy	.	.	2.r	.	.
!	!	!LO:SIC:v:s=4f#/	!	!	!	!	!	!	!	!	!	!	!	!	!	!
4D/	x #5	4f/	4a\	8F#X\	-nit	-bis	.	.	.	.	.	.	.	.	.	.
.	.	.	.	8d\	in	o-	.	.	.	.	.	.	.	.	.	.
4r	.	4r	4r	8d\	no-	.	.	.	.	.	.	.	.	.	.	.
.	.	.	.	8d\	-mi-	.	.	.	.	.	.	.	.	.	.	.
!LO:LB:g=original	!	!	!	!	!	!	!	!	!	!	!	!	!	!	!	!
=66	=66	=66	=66	=66	=66	=66	=66	=66	=66	=66	=66	=66	=66	=66	=66	=66
!	!	!	!	!	!	!	!	!	!	!	!	!	!LO:N:vis=00	!	!LO:N:vis=00	!LO:N:vis=00
4G\	.	16B/LL	4.gg\	4.d\	-ne	-ra	2.ryy	.	2.ryy	.	2.ryy	.	0.r	2.r	0.r	0.r
.	.	16d/	.	.	.	.	.	.	.	.	.	.	.	.	.	.
.	.	16g/	.	.	.	.	.	.	.	.	.	.	.	.	.	.
.	.	16d/JJ	.	.	.	.	.	.	.	.	.	.	.	.	.	.
!	!	!LO:LB:g=original	!	!	!	!	!	!	!	!	!	!	!	!	!	!
4r	.	16B/LL	.	.	.	.	.	.	.	.	.	.	.	.	.	.
.	.	16d/	.	.	.	.	.	.	.	.	.	.	.	.	.	.
.	.	16g/	16dd\LL	16B\LL	in	pro	.	.	.	.	.	.	.	.	.	.
.	.	16d/JJ	16b\JJ	16G\JJ	.	.	.	.	.	.	.	.	.	.	.	.
4D\	x #	16c/LL	8a\L	16c\LL	no-	no-	.	.	.	.	.	.	.	.	.	.
.	.	16d/	.	16A\	.	.	.	.	.	.	.	.	.	.	.	.
.	.	16f#X/	8cc\J	16G\	-mi-	.	.	.	.	.	.	.	.	.	.	.
.	.	16d/JJ	.	16F#X\JJ	-ne	.	.	.	.	.	.	.	.	.	.	.
=67	=67	=67	=67	=67	=67	=67	=67	=67	=67	=67	=67	=67	=67	=67	=67	=67
4GG/	.	16B/LL	8.b/L	8.G\L	Do-	.	2.ryy	.	2.ryy	.	2.ryy	.	.	2.r	.	.
.	.	16d/	.	.	.	.	.	.	.	.	.	.	.	.	.	.
.	.	16g/	.	.	.	.	.	.	.	.	.	.	.	.	.	.
.	.	16d/JJ	16g/Jk	16B\Jk	-mi-	-bis	.	.	.	.	.	.	.	.	.	.
4D/	.	16c/LL	4f#X/	8A\L	-ni	o-	.	.	.	.	.	.	.	.	.	.
.	.	16d/	.	.	.	.	.	.	.	.	.	.	.	.	.	.
.	.	16cc/	.	8d\	in	.	.	.	.	.	.	.	.	.	.	.
.	.	16d/JJ	.	.	.	.	.	.	.	.	.	.	.	.	.	.
4r	.	16c/LL	4r	8d\	no-	.	.	.	.	.	.	.	.	.	.	.
.	.	16d/	.	.	.	.	.	.	.	.	.	.	.	.	.	.
.	.	16a/	.	8d\J	-mi-	.	.	.	.	.	.	.	.	.	.	.
.	.	16d/JJ	.	.	.	.	.	.	.	.	.	.	.	.	.	.
!	!	!	!	!LO:LB:g=original	!	!	!	!	!	!	!	!	!	!	!	!
=68	=68	=68	=68	=68	=68	=68	=68	=68	=68	=68	=68	=68	=68	=68	=68	=68
4G\	.	16B/LL	4.gg\	4.d\	-ne	-ra	2.ryy	.	2.ryy	.	2.ryy	.	.	2.r	.	.
.	.	16d/	.	.	.	.	.	.	.	.	.	.	.	.	.	.
.	.	16g/	.	.	.	.	.	.	.	.	.	.	.	.	.	.
.	.	16d/JJ	.	.	.	.	.	.	.	.	.	.	.	.	.	.
*	*	*rep	*	*	*	*	*	*	*	*	*	*	*	*	*	*
4r	.	16B/LL	.	.	.	.	.	.	.	.	.	.	.	.	.	.
.	.	16d/	.	.	.	.	.	.	.	.	.	.	.	.	.	.
.	.	16g/	16dd\LL	16B\LL	in	pro	.	.	.	.	.	.	.	.	.	.
.	.	16d/JJ	16b\JJ	16G\JJ	.	.	.	.	.	.	.	.	.	.	.	.
*	*	*Xrep	*	*	*	*	*	*	*	*	*	*	*	*	*	*
4D/	.	16c/LL	8a\L	16c\LL	no-	no-	.	.	.	.	.	.	.	.	.	.
.	.	16d/	.	16A\	.	.	.	.	.	.	.	.	.	.	.	.
.	.	16f#X/	8cc\J	16G\	-mi-	.	.	.	.	.	.	.	.	.	.	.
.	.	16d/JJ	.	16F#X\JJ	-ne	.	.	.	.	.	.	.	.	.	.	.
=69	=69	=69	=69	=69	=69	=69	=69	=69	=69	=69	=69	=69	=69	=69	=69	=69
4GG/	.	16B/LL	8.b/L	8.G\L	do-	.	2.ryy	.	2.ryy	.	2.ryy	.	.	2.r	.	.
.	.	16d/	.	.	.	.	.	.	.	.	.	.	.	.	.	.
.	.	16g/	.	.	.	.	.	.	.	.	.	.	.	.	.	.
.	.	16d/JJ	16g/Jk	16B\Jk	-mi-	.	.	.	.	.	.	.	.	.	.	.
!	!	!	!LO:LB:g=original	!	!	!	!	!	!	!	!	!	!	!	!	!
!	!	!LO:TX:t=P:problem:mixed beam	!LO:TX:t=P:problem:mixed beam	!	!	!	!	!	!	!	!	!	!	!	!	!
4D/	x #	8d/L	8f#X/L	8A\L	-ni	-bis	.	.	.	.	.	.	.	.	.	.
.	.	8b\	8dd\	8D\	qui	o-	.	.	.	.	.	.	.	.	.	.
4r	.	8a\	8cc\	8E\	ve-	.	.	.	.	.	.	.	.	.	.	.
!	!	!	!	!LO:SIC:v:s=8F#\J	!	!	!	!	!	!	!	!	!	!	!	!
.	.	8f#X\J	8a\J	8F\J	-nit	.	.	.	.	.	.	.	.	.	.	.
=70	=70	=70	=70	=70	=70	=70	=70	=70	=70	=70	=70	=70	=70	=70	=70	=70
*tremolo	*	*	*	*	*	*	*	*	*	*	*	*	*	*	*	*
!	!	!	!	!	!	!	!	!	!	!	!	!	!LO:N:vis=00	!	!LO:N:vis=00	!LO:N:vis=00
8B\L	6 3	16g\LL	16b\LL	16G\LL	in	.	2.ryy	.	2.ryy	.	2.ryy	.	0.r	2.r	0.r	0.r
.	.	16a\	16cc\	16d\	.	.	.	.	.	.	.	.	.	.	.	.
8B\	.	16b\	16dd\	16B\	.	.	.	.	.	.	.	.	.	.	.	.
.	.	16b\JJ	16dd\JJ	16G\JJ	.	.	.	.	.	.	.	.	.	.	.	.
*	*	*rep	*	*	*	*	*	*	*	*	*	*	*	*	*	*
8B\	.	16g\LL	16b\LL	16F#X\LL	no-	.	.	.	.	.	.	.	.	.	.	.
.	.	16a\	16cc\	16G\	.	.	.	.	.	.	.	.	.	.	.	.
8B\	.	16b\	16dd\	16B\	.	.	.	.	.	.	.	.	.	.	.	.
.	.	16b\JJ	16dd\JJ	16G\JJ	.	.	.	.	.	.	.	.	.	.	.	.
*	*	*Xrep	*	*	*	*	*	*	*	*	*	*	*	*	*	*
8B\	.	16b\LL	16dd\LL	16F#X\LL	.	-ra	.	.	.	.	.	.	.	.	.	.
.	.	16cc\	16ee\	16G\	.	.	.	.	.	.	.	.	.	.	.	.
8B\J	.	16dd\	16ffn\	16D\	-mi-	pro	.	.	.	.	.	.	.	.	.	.
.	.	16dd\JJ	16ff\JJ	16Fn\JJ	-ne	.	.	.	.	.	.	.	.	.	.	.
*Xtremolo	*	*	*	*	*	*	*	*	*	*	*	*	*	*	*	*
=71	=71	=71	=71	=71	=71	=71	=71	=71	=71	=71	=71	=71	=71	=71	=71	=71
!LO:TX:t=P:problem:mixed beam	!	!	!	!	!	!	!	!	!	!	!	!	!	!	!	!
8c\L	.	8cc\L	8ee\L	16E\LL	Do-	no-	2.ryy	.	2.ryy	.	2.ryy	.	.	2.r	.	.
.	.	.	.	16e\	.	.	.	.	.	.	.	.	.	.	.	.
8c\	.	8a\	8cc\	16c\	.	.	.	.	.	.	.	.	.	.	.	.
.	.	.	.	16A\JJ	.	.	.	.	.	.	.	.	.	.	.	.
8d\	.	8g\	8b\	4G\	.	.	.	.	.	.	.	.	.	.	.	.
8d\	.	8g\	8b\	.	.	.	.	.	.	.	.	.	.	.	.	.
8D/	.	8f#X\	8cc\	4AT\	-mi-	-bis	.	.	.	.	.	.	.	.	.	.
8D/J	.	8f#\J	8cc\J	.	.	.	.	.	.	.	.	.	.	.	.	.
!	!	!LO:LB:g=original	!	!LO:LB:g=original	!	!	!	!	!	!	!	!	!	!	!	!
=72	=72	=72	=72	=72	=72	=72	=72	=72	=72	=72	=72	=72	=72	=72	=72	=72
*tremolo	*	*	*	*	*	*	*	*	*	*	*	*	*	*	*	*
8B\L	6 3	16g\LL	16b\LL	16B\LL	-ni	o-	2.ryy	.	2.ryy	.	2.ryy	.	.	2.r	.	.
.	.	16a\	16cc\	16d\	.	.	.	.	.	.	.	.	.	.	.	.
8B\	.	16b\	16dd\	16B\	in	.	.	.	.	.	.	.	.	.	.	.
.	.	16b\JJ	16dd\JJ	16G\JJ	.	.	.	.	.	.	.	.	.	.	.	.
*	*	*rep	*	*	*	*	*	*	*	*	*	*	*	*	*	*
8B\	.	16g\LL	16b\LL	16F#X\LL	no-	.	.	.	.	.	.	.	.	.	.	.
.	.	16a\	16cc\	16G\	.	.	.	.	.	.	.	.	.	.	.	.
8B\	.	16b\	16dd\	16B\	.	.	.	.	.	.	.	.	.	.	.	.
.	.	16b\JJ	16dd\JJ	16G\JJ	.	.	.	.	.	.	.	.	.	.	.	.
*	*	*Xrep	*	*	*	*	*	*	*	*	*	*	*	*	*	*
8B\	.	16b\LL	16dd\LL	16F#\LL	.	-ra	.	.	.	.	.	.	.	.	.	.
.	.	16cc\	16ee\	16G\	.	.	.	.	.	.	.	.	.	.	.	.
8B\J	.	16dd\	16ff\	16D\	.	pro	.	.	.	.	.	.	.	.	.	.
.	.	16dd\JJ	16ff\JJ	16Fn\JJ	.	.	.	.	.	.	.	.	.	.	.	.
*Xtremolo	*	*	*	*	*	*	*	*	*	*	*	*	*	*	*	*
=73	=73	=73	=73	=73	=73	=73	=73	=73	=73	=73	=73	=73	=73	=73	=73	=73
!LO:TX:t=P:problem:mixed beam	!	!	!	!	!	!	!	!	!	!	!	!	!	!	!	!
8c\L	.	8cc\L	8ee\L	16E\LL	.	no-	2.ryy	.	2.ryy	.	2.ryy	.	.	2.r	.	.
.	.	.	.	16e\	.	.	.	.	.	.	.	.	.	.	.	.
8c\	.	8a\J	8cc\J	32d\L	-mi-	.	.	.	.	.	.	.	.	.	.	.
.	.	.	.	32c\	.	.	.	.	.	.	.	.	.	.	.	.
.	.	.	.	32B\	-ne	.	.	.	.	.	.	.	.	.	.	.
.	.	.	.	32A\JJJ	.	.	.	.	.	.	.	.	.	.	.	.
*	*	*tremolo	*	*	*	*	*	*	*	*	*	*	*	*	*	*
8d\	.	16g/LL	16b\LL	8.G\L	do-	.	.	.	.	.	.	.	.	.	.	.
.	.	16g/	16gg\	.	.	.	.	.	.	.	.	.	.	.	.	.
8d\	.	16g/	16gg\	.	.	.	.	.	.	.	.	.	.	.	.	.
.	.	16g/JJ	16gg\JJ	16A\Jk	.	.	.	.	.	.	.	.	.	.	.	.
!	!	!	!LO:TX:t=P:problem:mixed beam	!	!	!	!	!	!	!	!	!	!	!	!	!
8D/	.	16a/LL	16a/LL	4AT\	-mi-	.	.	.	.	.	.	.	.	.	.	.
.	.	16a/	16ff#X\	.	.	.	.	.	.	.	.	.	.	.	.	.
8D/J	.	16a/	16ff#\	.	.	.	.	.	.	.	.	.	.	.	.	.
.	.	16a/JJ	16ff#\JJ	.	.	.	.	.	.	.	.	.	.	.	.	.
*	*	*Xtremolo	*	*	*	*	*	*	*	*	*	*	*	*	*	*
=74	=74	=74	=74	=74	=74	=74	=74	=74	=74	=74	=74	=74	=74	=74	=74	=74
*tremolo	*	*	*	*	*	*	*	*	*	*	*	*	*	*	*	*
!	!	!	!	!	!	!	!	!	!	!	!	!	!LO:N:vis=00	!	!LO:N:vis=00	!LO:N:vis=00
8G\L	.	16B/LL	16gg\LL	4G\	-ni	-bis	2.ryy	.	2.ryy	.	2.ryy	.	0.r	2.r	0.r	0.r
.	.	16d/	16aa\	.	.	.	.	.	.	.	.	.	.	.	.	.
8G\	.	16B/	16bb\	.	.	.	.	.	.	.	.	.	.	.	.	.
.	.	16d/JJ	16ccc\JJ	.	.	.	.	.	.	.	.	.	.	.	.	.
*	*	*rep	*	*	*	*	*	*	*	*	*	*	*	*	*	*
!	!	!	!LO:LB:g=original	!	!	!	!	!	!	!	!	!	!	!	!	!
8G\	.	16B/LL	16ddd\LL	4r	.	.	.	.	.	.	.	.	.	.	.	.
.	.	16d/	16bb\	.	.	.	.	.	.	.	.	.	.	.	.	.
8G\	.	16B/	16eee\	.	.	.	.	.	.	.	.	.	.	.	.	.
.	.	16d/JJ	16ddd\JJ	.	.	.	.	.	.	.	.	.	.	.	.	.
*	*	*Xrep	*	*	*	*	*	*	*	*	*	*	*	*	*	*
*	*	*rep	*	*	*	*	*	*	*	*	*	*	*	*	*	*
8G\	.	16B/LL	16ccc\LL	4r	.	.	.	.	.	.	.	.	.	.	.	.
.	.	16d/	16bb\	.	.	.	.	.	.	.	.	.	.	.	.	.
8G\J	.	16B/	16aa\	.	.	.	.	.	.	.	.	.	.	.	.	.
.	.	16d/JJ	16gg\JJ	.	.	.	.	.	.	.	.	.	.	.	.	.
=75	=75	=75	=75	=75	=75	=75	=75	=75	=75	=75	=75	=75	=75	=75	=75	=75
!	!	!	!	!LO:N:vis=00	!	!	!	!	!	!	!	!	!	!	!	!
8A\L	.	16c/LL	8bb\L	0.r	.	.	2.ryy	.	2.ryy	.	2.ryy	.	.	2.r	.	.
.	.	16e/	.	.	.	.	.	.	.	.	.	.	.	.	.	.
8A\	.	16c/	8aa\J	.	.	.	.	.	.	.	.	.	.	.	.	.
.	.	16e/JJ	.	.	.	.	.	.	.	.	.	.	.	.	.	.
*	*	*rep	*	*	*	*	*	*	*	*	*	*	*	*	*	*
8A\	.	16c/LL	4.aa\	.	.	.	.	.	.	.	.	.	.	.	.	.
.	.	16e/	.	.	.	.	.	.	.	.	.	.	.	.	.	.
8A\J	.	16c/	.	.	.	.	.	.	.	.	.	.	.	.	.	.
.	.	16e/JJ	.	.	.	.	.	.	.	.	.	.	.	.	.	.
*Xtremolo	*	*Xrep	*	*	*	*	*	*	*	*	*	*	*	*	*	*
8G\L	.	16B/LL	.	.	.	.	.	.	.	.	.	.	.	.	.	.
.	.	16d/	.	.	.	.	.	.	.	.	.	.	.	.	.	.
8G\J	.	16B/	8gg\	.	.	.	.	.	.	.	.	.	.	.	.	.
.	.	16d/JJ	.	.	.	.	.	.	.	.	.	.	.	.	.	.
!LO:PB:g=original	!	!	!	!	!	!	!	!	!	!	!	!	!	!	!	!
=76	=76	=76	=76	=76	=76	=76	=76	=76	=76	=76	=76	=76	=76	=76	=76	=76
*tremolo	*	*	*	*	*	*	*	*	*	*	*	*	*	*	*	*
8F#X\L	65 33	16A/LL	16ff#X\LL	.	.	.	2.ryy	.	2.ryy	.	2.ryy	.	.	2.r	.	.
.	.	16d/	16gg\	.	.	.	.	.	.	.	.	.	.	.	.	.
8F#\	.	16A/	16aa\	.	.	.	.	.	.	.	.	.	.	.	.	.
.	.	16d/JJ	16bb\JJ	.	.	.	.	.	.	.	.	.	.	.	.	.
*	*	*rep	*	*	*	*	*	*	*	*	*	*	*	*	*	*
8F#\	.	16A/LL	16ccc\LL	.	.	.	.	.	.	.	.	.	.	.	.	.
.	.	16d/	16aa\	.	.	.	.	.	.	.	.	.	.	.	.	.
8F#\	.	16A/	16gg\	.	.	.	.	.	.	.	.	.	.	.	.	.
.	.	16d/JJ	16ff#\JJ	.	.	.	.	.	.	.	.	.	.	.	.	.
*	*	*Xrep	*	*	*	*	*	*	*	*	*	*	*	*	*	*
*	*	*rep	*	*	*	*	*	*	*	*	*	*	*	*	*	*
8F#\	.	16A/LL	8.ddd\L	.	.	.	.	.	.	.	.	.	.	.	.	.
.	.	16d/	.	.	.	.	.	.	.	.	.	.	.	.	.	.
8F#\J	.	16A/	.	.	.	.	.	.	.	.	.	.	.	.	.	.
.	.	16d/JJ	16ccc\Jk	.	.	.	.	.	.	.	.	.	.	.	.	.
*	*	*Xrep	*	*	*	*	*	*	*	*	*	*	*	*	*	*
=77	=77	=77	=77	=77	=77	=77	=77	=77	=77	=77	=77	=77	=77	=77	=77	=77
8G\L	.	16B/LL	8.ccc\L	.	.	.	2.ryy	.	2.ryy	.	2.ryy	.	.	2.r	.	.
.	.	16d/	.	.	.	.	.	.	.	.	.	.	.	.	.	.
8G\	.	16B/	.	.	.	.	.	.	.	.	.	.	.	.	.	.
.	.	16d/JJ	16bb\Jk	.	.	.	.	.	.	.	.	.	.	.	.	.
*	*	*rep	*	*	*	*	*	*	*	*	*	*	*	*	*	*
8G\	.	16B/LL	4bb\	.	.	.	.	.	.	.	.	.	.	.	.	.
.	.	16d/	.	.	.	.	.	.	.	.	.	.	.	.	.	.
8G\	.	16B/	.	.	.	.	.	.	.	.	.	.	.	.	.	.
.	.	16d/JJ	.	.	.	.	.	.	.	.	.	.	.	.	.	.
*	*	*Xrep	*	*	*	*	*	*	*	*	*	*	*	*	*	*
*	*	*rep	*	*	*	*	*	*	*	*	*	*	*	*	*	*
8G\	.	16B/LL	16bb\LL	.	.	.	.	.	.	.	.	.	.	.	.	.
.	.	16d/	16ddd\	.	.	.	.	.	.	.	.	.	.	.	.	.
8G\J	.	16B/	16eee\	.	.	.	.	.	.	.	.	.	.	.	.	.
.	.	16d/JJ	16fff\JJ	.	.	.	.	.	.	.	.	.	.	.	.	.
*	*	*Xrep	*	*	*	*	*	*	*	*	*	*	*	*	*	*
!	!	!LO:LB:g=original	!	!	!	!	!	!	!	!	!	!	!	!	!	!
=78	=78	=78	=78	=78	=78	=78	=78	=78	=78	=78	=78	=78	=78	=78	=78	=78
!	!	!	!	!	!	!	!	!	!	!	!	!	!LO:N:vis=00	!	!LO:N:vis=00	!LO:N:vis=00
8B\L	6 3	16d/LL	16ggg\LL	.	.	.	2.ryy	.	2.ryy	.	2.ryy	.	0.r	2.r	0.r	0.r
.	.	16g/	16fff\	.	.	.	.	.	.	.	.	.	.	.	.	.
8B\	.	16d/	16eee\	.	.	.	.	.	.	.	.	.	.	.	.	.
!	!	!	!LO:TX:t=P:problem:d:zapisane ołówkiem	!	!	!	!	!	!	!	!	!	!	!	!	!
.	.	16g/JJ	16ddd\JJ	.	.	.	.	.	.	.	.	.	.	.	.	.
*	*	*rep	*	*	*	*	*	*	*	*	*	*	*	*	*	*
8B\	.	16d/LL	8.ddd\L	.	.	.	.	.	.	.	.	.	.	.	.	.
.	.	16g/	.	.	.	.	.	.	.	.	.	.	.	.	.	.
8B\	.	16d/	.	.	.	.	.	.	.	.	.	.	.	.	.	.
.	.	16g/JJ	16bb\Jk	.	.	.	.	.	.	.	.	.	.	.	.	.
*	*	*Xrep	*	*	*	*	*	*	*	*	*	*	*	*	*	*
*	*	*rep	*	*	*	*	*	*	*	*	*	*	*	*	*	*
8B\	.	16d/LL	16ddd\LL	.	.	.	.	.	.	.	.	.	.	.	.	.
!	!	!	!LO:TX:a:t=P:problem:h:zapisane ołówkiem	!	!	!	!	!	!	!	!	!	!	!	!	!
.	.	16g/	16bb\	.	.	.	.	.	.	.	.	.	.	.	.	.
8B\J	.	16d/	16aa\	.	.	.	.	.	.	.	.	.	.	.	.	.
.	.	16g/JJ	16gg\JJ	.	.	.	.	.	.	.	.	.	.	.	.	.
*	*	*Xrep	*	*	*	*	*	*	*	*	*	*	*	*	*	*
!	!	!	!LO:LB:g=original	!	!	!	!	!	!	!	!	!	!	!	!	!
=79	=79	=79	=79	=79	=79	=79	=79	=79	=79	=79	=79	=79	=79	=79	=79	=79
!	!	!	!	!LO:N:vis=0	!	!	!	!	!	!	!	!	!	!	!	!
8c\L	.	16e/LL	16ccc\LL	1.r	.	.	2.ryy	.	2.ryy	.	2.ryy	.	.	2.r	.	.
.	.	16g/	16gg\	.	.	.	.	.	.	.	.	.	.	.	.	.
8c\	.	16e/	16aa\	.	.	.	.	.	.	.	.	.	.	.	.	.
.	.	16g/JJ	16bb\JJ	.	.	.	.	.	.	.	.	.	.	.	.	.
*	*	*rep	*	*	*	*	*	*	*	*	*	*	*	*	*	*
8c\	.	16e/LL	16ccc\LL	.	.	.	.	.	.	.	.	.	.	.	.	.
.	.	16g/	16ddd\	.	.	.	.	.	.	.	.	.	.	.	.	.
8c\	.	16e/	16eee\	.	.	.	.	.	.	.	.	.	.	.	.	.
.	.	16g/JJ	16fff\JJ	.	.	.	.	.	.	.	.	.	.	.	.	.
*	*	*Xrep	*	*	*	*	*	*	*	*	*	*	*	*	*	*
*	*	*rep	*	*	*	*	*	*	*	*	*	*	*	*	*	*
8c\	.	16e/LL	16ggg\LL	.	.	.	.	.	.	.	.	.	.	.	.	.
.	.	16g/	16fff\	.	.	.	.	.	.	.	.	.	.	.	.	.
8c\J	.	16e/	16ggg\	.	.	.	.	.	.	.	.	.	.	.	.	.
.	.	16g/JJ	16eee\JJ	.	.	.	.	.	.	.	.	.	.	.	.	.
*Xtremolo	*	*Xrep	*	*	*	*	*	*	*	*	*	*	*	*	*	*
=80	=80	=80	=80	=80	=80	=80	=80	=80	=80	=80	=80	=80	=80	=80	=80	=80
8B\L	.	16d/LL	16ddd\LL	.	.	.	2.ryy	.	2.ryy	.	2.ryy	.	.	2.r	.	.
.	.	16g/	16eee\	.	.	.	.	.	.	.	.	.	.	.	.	.
8c\	.	16e/	16ccc\	.	.	.	.	.	.	.	.	.	.	.	.	.
.	.	16c/JJ	16aa\JJ	.	.	.	.	.	.	.	.	.	.	.	.	.
8d\	.	16B/LL	8.gg\L	.	.	.	.	.	.	.	.	.	.	.	.	.
.	.	16d/	.	.	.	.	.	.	.	.	.	.	.	.	.	.
8d\	.	16B/	.	.	.	.	.	.	.	.	.	.	.	.	.	.
.	.	16d/JJ	16aa\Jk	.	.	.	.	.	.	.	.	.	.	.	.	.
8D\	.	16c/LL	4aaT\	.	.	.	.	.	.	.	.	.	.	.	.	.
.	.	16d/	.	.	.	.	.	.	.	.	.	.	.	.	.	.
8D\J	.	16c/	.	.	.	.	.	.	.	.	.	.	.	.	.	.
.	.	16d/JJ	.	.	.	.	.	.	.	.	.	.	.	.	.	.
=81	=81	=81	=81	=81	=81	=81	=81	=81	=81	=81	=81	=81	=81	=81	=81	=81
4G\	.	4g/	4gg\	4r	.	.	2.ryy	.	2.ryy	.	2.ryy	.	.	2.r	.	.
4GG/	.	4G/	4G/	4r	.	.	.	.	.	.	.	.	.	.	.	.
4r	.	4r	4r	8D/	Be-	Fe-	.	.	.	.	.	.	.	.	.	.
.	.	.	.	8D/	-ne-	.	.	.	.	.	.	.	.	.	.	.
!	!	!	!	!LO:LB:g=original	!	!	!	!	!	!	!	!	!	!	!	!
=82	=82	=82	=82	=82	=82	=82	=82	=82	=82	=82	=82	=82	=82	=82	=82	=82
!	!	!	!	!	!	!	!	!	!	!	!	!	!LO:N:vis=00	!	!LO:N:vis=00	!LO:N:vis=00
8G\	5 3	16r	16r	4.G\	-di-	-de-	2.ryy	.	2.ryy	.	2.ryy	.	0.r	2.r	0.r	0.r
.	.	16g/LL	16b\LL	.	.	.	.	.	.	.	.	.	.	.	.	.
8r	.	16g/	16b\	.	.	.	.	.	.	.	.	.	.	.	.	.
.	.	16g/JJ	16b\JJ	.	.	.	.	.	.	.	.	.	.	.	.	.
8G\	.	16r	16r	.	.	.	.	.	.	.	.	.	.	.	.	.
.	.	16g/LL	16b\LL	.	.	.	.	.	.	.	.	.	.	.	.	.
8r	.	16g/	16b\	16A\LL	.	.	.	.	.	.	.	.	.	.	.	.
.	.	16g/JJ	16b\JJ	16B\JJ	.	.	.	.	.	.	.	.	.	.	.	.
8G\	6 4	16r	16r	8c\L	-ctus	-ris	.	.	.	.	.	.	.	.	.	.
.	.	16aLL 16f#X/	16cc\LL	.	.	.	.	.	.	.	.	.	.	.	.	.
8r	.	16a 16f#/	16cc\	16d\L	qui	.	.	.	.	.	.	.	.	.	.	.
.	.	16aJJ 16f#/	16cc\JJ	16e\JJ	.	.	.	.	.	.	.	.	.	.	.	.
=83	=83	=83	=83	=83	=83	=83	=83	=83	=83	=83	=83	=83	=83	=83	=83	=83
8G\	6 4	16r	16r	4e\	ve-	ar-	2.ryy	.	2.ryy	.	2.ryy	.	.	2.r	.	.
!	!	!LO:SIC:v:n=2:s=16f#/	!	!	!	!	!	!	!	!	!	!	!	!	!	!
.	.	16aLL 16f/	16cc\LL	.	.	.	.	.	.	.	.	.	.	.	.	.
!	!	!LO:SIC:v:n=2:s=16f#/	!	!	!	!	!	!	!	!	!	!	!	!	!	!
8r	.	16a 16f/	16cc\	.	.	.	.	.	.	.	.	.	.	.	.	.
!	!	!LO:SIC:v:n=2:s=16f#/	!	!	!	!	!	!	!	!	!	!	!	!	!	!
.	.	16aJJ 16f/	16cc\JJ	.	.	.	.	.	.	.	.	.	.	.	.	.
!	!	!LO:LB:g=original	!	!	!	!	!	!	!	!	!	!	!	!	!	!
8G\	5 3	16r	16r	4d\	-nit	-ca	.	.	.	.	.	.	.	.	.	.
.	.	16g/LL	16b\LL	.	.	.	.	.	.	.	.	.	.	.	.	.
8r	.	16g/	16b\	.	.	.	.	.	.	.	.	.	.	.	.	.
.	.	16g/JJ	16b\JJ	.	.	.	.	.	.	.	.	.	.	.	.	.
!	!	!	!LO:LB:g=original	!	!	!	!	!	!	!	!	!	!	!	!	!
8B\	6 3	16r	16r	8r	.	.	.	.	.	.	.	.	.	.	.	.
.	.	16g/LL	16b\LL	.	.	.	.	.	.	.	.	.	.	.	.	.
8r	.	16g/	16b\	16B\LL	in	o-	.	.	.	.	.	.	.	.	.	.
.	.	16g/JJ	16b\JJ	16d\JJ	no-	.	.	.	.	.	.	.	.	.	.	.
=84	=84	=84	=84	=84	=84	=84	=84	=84	=84	=84	=84	=84	=84	=84	=84	=84
8c\	6 3	16r	16r	16d\LL	.	.	2.ryy	.	2.ryy	.	2.ryy	.	.	2.r	.	.
.	.	16e/LL	16cc\LL	16c\	.	.	.	.	.	.	.	.	.	.	.	.
8r	.	16e/	16cc\	16A\	.	.	.	.	.	.	.	.	.	.	.	.
.	.	16e/JJ	16cc\JJ	16c\JJ	.	.	.	.	.	.	.	.	.	.	.	.
8d\	6 4	16r	16r	16c\LL	.	-ra	.	.	.	.	.	.	.	.	.	.
.	.	16g/LL	16b\LL	16B\	-mi-	.	.	.	.	.	.	.	.	.	.	.
8r	.	16g/	16b\	16G\	-ne	pro	.	.	.	.	.	.	.	.	.	.
.	.	16g/JJ	16b\JJ	16B\JJ	.	.	.	.	.	.	.	.	.	.	.	.
8D/	7 5	16r	16r	16B\LL	do-	no-	.	.	.	.	.	.	.	.	.	.
.	.	16f#X/LL	16a/LL	16A\	.	.	.	.	.	.	.	.	.	.	.	.
!	!	!	!	!LO:SIC:v:s=16F#\	!	!	!	!	!	!	!	!	!	!	!	!
8r	.	16f#/	16a/	16F\	-mi-	.	.	.	.	.	.	.	.	.	.	.
.	.	16f#/JJ	16a/JJ	16A\JJ	.	.	.	.	.	.	.	.	.	.	.	.
=85	=85	=85	=85	=85	=85	=85	=85	=85	=85	=85	=85	=85	=85	=85	=85	=85
!LO:TX:t=P:problem:mixed beam	!	!	!	!	!	!	!	!	!	!	!	!	!	!	!	!
8GG/L	.	4B/	4g/	4.G\	-ni	-bis	2.ryy	.	2.ryy	.	2.ryy	.	.	2.r	.	.
8G\	.	.	.	.	.	.	.	.	.	.	.	.	.	.	.	.
8G\	.	8d/L	8a/L	.	.	.	.	.	.	.	.	.	.	.	.	.
8G\J	.	8g/J	8b/J	16A\LL	in	o-	.	.	.	.	.	.	.	.	.	.
.	.	.	.	16B\JJ	.	.	.	.	.	.	.	.	.	.	.	.
!LO:LB:g=original	!	!	!	!LO:LB:g=original	!	!	!	!	!	!	!	!	!	!	!	!
8F#X\L	5 3	8a/L	8cc\L	8c\L	no	.	.	.	.	.	.	.	.	.	.	.
8F#\J	.	16b/L	16dd\L	16d\L	.	.	.	.	.	.	.	.	.	.	.	.
.	.	16cc/JJ	16ee\JJ	16e\JJ	.	.	.	.	.	.	.	.	.	.	.	.
=86	=86	=86	=86	=86	=86	=86	=86	=86	=86	=86	=86	=86	=86	=86	=86	=86
4G\	.	16cc\LL	16ee\LL	16e\LL	no-	.	2.ryy	.	2.ryy	.	2.ryy	.	2.r	2.r	2.r	2.r
.	.	16b\JJ	16dd\JJ	16d\	.	-ra	.	.	.	.	.	.	.	.	.	.
.	.	16r	16r	16B\	-mi-	.	.	.	.	.	.	.	.	.	.	.
.	.	16b\	16dd\	16d\JJ	-ne	.	.	.	.	.	.	.	.	.	.	.
!LO:TX:t=P:problem:4r	!	!	!	!	!	!	!	!	!	!	!	!	!	!	!	!
4C/	.	16b/LL	16dd\LL	16d\LL	do-	.	.	.	.	.	.	.	.	.	.	.
.	.	16a/JJ	16cc\JJ	16c\	.	.	.	.	.	.	.	.	.	.	.	.
.	.	16r	16r	16B\	.	.	.	.	.	.	.	.	.	.	.	.
.	.	16a/	16cc\	16c\JJ	.	.	.	.	.	.	.	.	.	.	.	.
4D\	.	8c/L	8a/L	16E\LL	.	pro	.	.	.	.	.	.	.	.	.	.
.	.	.	.	16G\	.	.	.	.	.	.	.	.	.	.	.	.
.	.	8A/J	8f#X/J	16F#X\	-mi-	no-	.	.	.	.	.	.	.	.	.	.
.	.	.	.	16A\JJ	.	.	.	.	.	.	.	.	.	.	.	.
=87	=87	=87	=87	=87	=87	=87	=87	=87	=87	=87	=87	=87	=87	=87	=87	=87
4GG/	.	4B/	4g/	4G\	-ni	-bis	2.ryy	.	2.ryy	.	2.ryy	.	2G/	2g/	8g/L	8g/L
.	.	.	.	.	.	.	.	.	.	.	.	.	.	.	8f#X/	8a/
4r	.	4r	4r	4r	.	.	.	.	.	.	.	.	.	.	8g/	8b/
.	.	.	.	.	.	.	.	.	.	.	.	.	.	.	8a/	8cc/
4r	.	4r	4r	4r	.	.	.	.	.	.	.	.	4r	4r	8b/	8dd/
.	.	.	.	.	.	.	.	.	.	.	.	.	.	.	8cc/J	8ee/J
!	!	!	!	!	!	!	!	!	!	!	!	!	!	!LO:LB:g=original	!	!
=88	=88	=88	=88	=88	=88	=88	=88	=88	=88	=88	=88	=88	=88	=88	=88	=88
2.r	.	4g/	4g/	2.r	.	.	2.ryy	.	2.ryy	.	2.ryy	.	4G/	4g/	8dd\L	8ffn\L
.	.	.	.	.	.	.	.	.	.	.	.	.	.	.	8cc#X\	8ee\
.	.	4B/	4G/	.	.	.	.	.	.	.	.	.	4r	4r	8dd\	8ff\
.	.	.	.	.	.	.	.	.	.	.	.	.	.	.	8ee\	8gg\
.	.	4r	4r	.	.	.	.	.	.	.	.	.	8dd\L	8ff\L	8ff\	8aa\
.	.	.	.	.	.	.	.	.	.	.	.	.	8g\J	8dd\J	8dd\J	8bb\J
!	!	!LO:LB:g=original	!LO:LB:g=original	!	!	!	!	!	!	!	!	!	!	!	!	!
=89	=89	=89	=89	=89	=89	=89	=89	=89	=89	=89	=89	=89	=89	=89	=89	=89
!LO:TX:t=P:problem:ósemki i tremolo połączone belką	!	!	!	!	!	!	!	!	!	!	!	!	!	!	!	!
!LO:TX:t=P:problem:mixed beam	!	!	!	!	!	!	!	!	!	!	!	!	!LO:SIC:v:s=4cc\	!	!	!
8C/L	5 3	16c/LL	16e/LL	16G\LL	Be-	Ja-	2.ryy	.	2.ryy	.	2.ryy	.	4dd\	4ee\	4ee\	4ccc\
.	.	16d/	16fn/	16E\	.	.	.	.	.	.	.	.	.	.	.	.
8c\J	.	16e/	16g/	16D\	.	.	.	.	.	.	.	.	.	.	.	.
.	.	16e/JJ	16g/JJ	16C\JJ	.	.	.	.	.	.	.	.	.	.	.	.
*tremolo	*	*rep	*	*	*	*	*	*	*	*	*	*	*	*	*	*
8c\L	6 4	16c/LL	16e/LL	4C\	.	.	.	.	.	.	.	.	4r	4r	4r	4r
.	.	16d/	16f/	.	.	.	.	.	.	.	.	.	.	.	.	.
8c\	.	16e/	16g/	.	.	.	.	.	.	.	.	.	.	.	.	.
.	.	16e/JJ	16g/JJ	.	.	.	.	.	.	.	.	.	.	.	.	.
*	*	*Xrep	*	*	*	*	*	*	*	*	*	*	*	*	*	*
8c\	.	16d/LL	16e/LL	16C\LL	.	.	.	.	.	.	.	.	4r	4r	4r	4r
.	.	16e/	16f/	16c\	.	-nu-	.	.	.	.	.	.	.	.	.	.
8c\J	.	16f/	16g/	16B\	-ne-	-a	.	.	.	.	.	.	.	.	.	.
.	.	16f/JJ	16g/JJ	16A\JJ	.	.	.	.	.	.	.	.	.	.	.	.
!	!	!	!	!LO:LB:g=original	!	!	!	!	!	!	!	!	!	!	!	!LO:LB:g=original
=90	=90	=90	=90	=90	=90	=90	=90	=90	=90	=90	=90	=90	=90	=90	=90	=90
*Xtremolo	*	*rep	*	*	*	*	*	*	*	*	*	*	*	*	*	*
!LO:TX:t=P:problem:ósemki i tremolo połączone belką	!	!	!	!	!	!	!	!	!	!	!	!	!	!	!	!
!LO:TX:t=P:problem:mixed beam	!	!	!	!	!	!	!	!	!	!	!	!	!LO:N:vis=00	!LO:N:vis=00	!LO:N:vis=00	!LO:N:vis=00
8C/L	.	16d/LL	16f/LL	16A\LL	-di-	ce-	2.ryy	.	2.ryy	.	2.ryy	.	0.r	0.r	0.r	0.r
.	.	16e/	16g/	16B\	.	.	.	.	.	.	.	.	.	.	.	.
8c\J	.	16f/	16a/	16c\	.	.	.	.	.	.	.	.	.	.	.	.
.	.	16f/JJ	16a/JJ	16A\JJ	.	.	.	.	.	.	.	.	.	.	.	.
*tremolo	*	*Xrep	*	*	*	*	*	*	*	*	*	*	*	*	*	*
8c\L	6 3	16c/LL	16e/LL	4G\	-ctus	-li	.	.	.	.	.	.	.	.	.	.
.	.	16d/	16f/	.	.	.	.	.	.	.	.	.	.	.	.	.
8c\	.	16e/	16g/	.	.	.	.	.	.	.	.	.	.	.	.	.
.	.	16e/JJ	16g/JJ	.	.	.	.	.	.	.	.	.	.	.	.	.
*	*	*rep	*	*	*	*	*	*	*	*	*	*	*	*	*	*
8c\	.	16c/LL	16e/LL	16F#X\LL	qui	o-	.	.	.	.	.	.	.	.	.	.
.	.	16d/	16f/	16G\	.	.	.	.	.	.	.	.	.	.	.	.
8c\J	.	16e/	16g/	16c\	.	.	.	.	.	.	.	.	.	.	.	.
.	.	16e/JJ	16g/JJ	16e\JJ	.	.	.	.	.	.	.	.	.	.	.	.
*	*	*Xrep	*	*	*	*	*	*	*	*	*	*	*	*	*	*
=91	=91	=91	=91	=91	=91	=91	=91	=91	=91	=91	=91	=91	=91	=91	=91	=91
8G\L	.	16B/LL	16d/LL	4d\	ve-	-ra	2.ryy	.	2.ryy	.	2.ryy	.	.	.	.	.
.	.	16c/	16e/	.	.	.	.	.	.	.	.	.	.	.	.	.
8G\	.	16d/	16f/	.	.	.	.	.	.	.	.	.	.	.	.	.
.	.	16d/JJ	16f/JJ	.	.	.	.	.	.	.	.	.	.	.	.	.
*	*	*rep	*	*	*	*	*	*	*	*	*	*	*	*	*	*
8G\	.	16B/LL	16d/LL	16c\LL	.	.	.	.	.	.	.	.	.	.	.	.
.	.	16c/	16e/	16B\	.	.	.	.	.	.	.	.	.	.	.	.
8G\	.	16d/	16f/	16A\	.	.	.	.	.	.	.	.	.	.	.	.
.	.	16d/JJ	16f/JJ	16G\JJ	.	.	.	.	.	.	.	.	.	.	.	.
*	*	*Xrep	*	*	*	*	*	*	*	*	*	*	*	*	*	*
8G\	.	16d/LL	16b\LL	16A\LL	.	pro	.	.	.	.	.	.	.	.	.	.
.	.	16e/	16cc\	16c\	.	.	.	.	.	.	.	.	.	.	.	.
8G\J	.	16f/	16dd\	16B\	.	no-	.	.	.	.	.	.	.	.	.	.
.	.	16f/JJ	16dd\JJ	16d\JJ	.	.	.	.	.	.	.	.	.	.	.	.
*Xtremolo	*	*	*	*	*	*	*	*	*	*	*	*	*	*	*	*
=92	=92	=92	=92	=92	=92	=92	=92	=92	=92	=92	=92	=92	=92	=92	=92	=92
4c\	.	8e/L	8cc\L	4c\	-nit	-bis	2.ryy	.	2.ryy	.	2.ryy	.	.	.	.	.
.	.	16c/L	16ee\L	.	.	.	.	.	.	.	.	.	.	.	.	.
.	.	16d/JJ	16ff\JJ	.	.	.	.	.	.	.	.	.	.	.	.	.
4r	.	8e/L	8gg\L	4r	.	.	.	.	.	.	.	.	.	.	.	.
.	.	8e/J	8gg\J	.	.	.	.	.	.	.	.	.	.	.	.	.
4r	.	16f/LL	16aa\LL	4r	.	.	.	.	.	.	.	.	.	.	.	.
.	.	16e/	16gg\	.	.	.	.	.	.	.	.	.	.	.	.	.
.	.	16d/	16ff\	.	.	.	.	.	.	.	.	.	.	.	.	.
.	.	16c/JJ	16ee\JJ	.	.	.	.	.	.	.	.	.	.	.	.	.
=93	=93	=93	=93	=93	=93	=93	=93	=93	=93	=93	=93	=93	=93	=93	=93	=93
*tremolo	*	*	*	*	*	*	*	*	*	*	*	*	*	*	*	*
!LO:TX:t=P:problem:ósemki i tremolo połączone belką	!	!	!	!	!	!	!	!	!	!	!	!	!	!	!	!
8F\L	6 5	16d/LL	16dd/LL	4d\	qui	ste-	2.ryy	.	2.ryy	.	2.ryy	.	.	.	.	.
.	.	16f/	16b/	.	.	.	.	.	.	.	.	.	.	.	.	.
8F\	.	16g/	16g/	.	.	.	.	.	.	.	.	.	.	.	.	.
.	.	16f/JJ	16f/JJ	.	.	.	.	.	.	.	.	.	.	.	.	.
8F\	.	16B/LL	16d/LL	16c\LL	ve-	.	.	.	.	.	.	.	.	.	.	.
.	.	16c/	16e/	16B\	.	.	.	.	.	.	.	.	.	.	.	.
8F\J	.	16d/	16f/	16A\	.	-la	.	.	.	.	.	.	.	.	.	.
.	.	16d/JJ	16f/JJ	16G\JJ	.	.	.	.	.	.	.	.	.	.	.	.
*Xtremolo	*	*	*	*	*	*	*	*	*	*	*	*	*	*	*	*
!	!	!	!LO:LB:g=original	!	!	!	!	!	!	!	!	!	!	!	!	!
8G\L	3 7	16B/LL	16d/LL	16A\LL	.	ma-	.	.	.	.	.	.	.	.	.	.
.	.	16c/	16e/	16c\	.	.	.	.	.	.	.	.	.	.	.	.
8G\J	.	16d/	16f/	16B\	.	-tu-	.	.	.	.	.	.	.	.	.	.
.	.	16d/JJ	16f/JJ	16d\JJ	.	-di-	.	.	.	.	.	.	.	.	.	.
!	!	!LO:LB:g=original	!	!LO:LB:g=original	!	!	!	!	!	!	!	!	!	!	!	!
=94	=94	=94	=94	=94	=94	=94	=94	=94	=94	=94	=94	=94	=94	=94	=94	=94
4C/	.	4c/	4e/	4c\	-nit	-na	2.ryy	.	2.ryy	.	2.ryy	.	4g/	4ee\	16cc\LL	16cc\LL
.	.	.	.	.	.	.	.	.	.	.	.	.	.	.	16cc\	16ee\
.	.	.	.	.	.	.	.	.	.	.	.	.	.	.	16dd\	16ff\
.	.	.	.	.	.	.	.	.	.	.	.	.	.	.	16ee\JJ	16gg\JJ
4c\	.	4r	4r	4r	.	.	.	.	.	.	.	.	4e/	4cc\	16ff\LL	16aa\LL
.	.	.	.	.	.	.	.	.	.	.	.	.	.	.	16ee\	16gg\
.	.	.	.	.	.	.	.	.	.	.	.	.	.	.	16ff\	16aa\
.	.	.	.	.	.	.	.	.	.	.	.	.	.	.	16dd\JJ	16bb\JJ
4r	.	4r	4r	4r	.	.	.	.	.	.	.	.	4r	4r	16ee\LL	16ccc\LL
.	.	.	.	.	.	.	.	.	.	.	.	.	.	.	16gg\	16bb\
.	.	.	.	.	.	.	.	.	.	.	.	.	.	.	16ff\	16aa\
.	.	.	.	.	.	.	.	.	.	.	.	.	.	.	16ee\JJ	16gg\JJ
!	!	!	!	!	!	!	!	!	!	!	!	!	!	!	!LO:LB:g=original	!
=95	=95	=95	=95	=95	=95	=95	=95	=95	=95	=95	=95	=95	=95	=95	=95	=95
!	!	!	!	!LO:N:vis=0	!	!	!	!	!	!	!	!	!	!	!	!
4G\	.	4d/	4f/	1.r	.	.	2.ryy	.	2.ryy	.	2.ryy	.	8dd\L	8ff\L	4dd\	4ff\
.	.	.	.	.	.	.	.	.	.	.	.	.	8g\	8dd\	.	.
4r	.	4r	4r	.	.	.	.	.	.	.	.	.	8cc\	8ee\	4r	4r
.	.	.	.	.	.	.	.	.	.	.	.	.	8dd\	8ff\	.	.
4GG/	.	4B/	4d/	.	.	.	.	.	.	.	.	.	8ee\	8gg\	4b\	4dd\
.	.	.	.	.	.	.	.	.	.	.	.	.	8dd\J	8ff\J	.	.
=96	=96	=96	=96	=96	=96	=96	=96	=96	=96	=96	=96	=96	=96	=96	=96	=96
4C/	.	4c/	4e 4G/	.	.	.	2.ryy	.	2.ryy	.	2.ryy	.	4g/	4ee\	16cc\LL	16ee\LL
.	.	.	.	.	.	.	.	.	.	.	.	.	.	.	16cc\	16ee\
.	.	.	.	.	.	.	.	.	.	.	.	.	.	.	16dd\	16ff\
.	.	.	.	.	.	.	.	.	.	.	.	.	.	.	16ee\JJ	16gg\JJ
4c\	.	4r	4r	.	.	.	.	.	.	.	.	.	4e/	4cc\	16ff\LL	16aa\LL
.	.	.	.	.	.	.	.	.	.	.	.	.	.	.	16ee\	16gg\
.	.	.	.	.	.	.	.	.	.	.	.	.	.	.	16ff\	16aa\
.	.	.	.	.	.	.	.	.	.	.	.	.	.	.	16dd\JJ	16bb\JJ
4r	.	4r	4r	.	.	.	.	.	.	.	.	.	4r	4r	16ee\LL	16ccc\LL
.	.	.	.	.	.	.	.	.	.	.	.	.	.	.	16gg\	16bb\
.	.	.	.	.	.	.	.	.	.	.	.	.	.	.	16ff\	16aa\
.	.	.	.	.	.	.	.	.	.	.	.	.	.	.	16ee\JJ	16gg\JJ
=97	=97	=97	=97	=97	=97	=97	=97	=97	=97	=97	=97	=97	=97	=97	=97	=97
4G\	.	4d/	4f/	2.r	.	.	2.ryy	.	2.ryy	.	2.ryy	.	8dd\L	8ff\L	4dd\	4ff\
.	.	.	.	.	.	.	.	.	.	.	.	.	8g\	8dd\	.	.
4r	.	4r	4r	.	.	.	.	.	.	.	.	.	8cc\	8ee\	4r	4r
.	.	.	.	.	.	.	.	.	.	.	.	.	8dd\	8ff\	.	.
4GG/	.	4B/	4d/	.	.	.	.	.	.	.	.	.	8ee\	8gg\	4b\	4dd\
.	.	.	.	.	.	.	.	.	.	.	.	.	8dd\J	8ff\J	.	.
!LO:LB:g=original	!	!	!	!	!	!	!	!	!	!	!	!	!	!	!	!
=98	=98	=98	=98	=98	=98	=98	=98	=98	=98	=98	=98	=98	=98	=98	=98	=98
4C/	.	4c/	4cc 4e 4G/	4r	.	.	2.ryy	.	2.ryy	.	2.ryy	.	4cc\	4ee\	16cc\LL	16ee\LL
.	.	.	.	.	.	.	.	.	.	.	.	.	.	.	16dd\	16ff\
.	.	.	.	.	.	.	.	.	.	.	.	.	.	.	16cc\	16ee\
.	.	.	.	.	.	.	.	.	.	.	.	.	.	.	16dd\JJ	16ff\JJ
8r	.	8r	8r	8r	.	.	.	.	.	.	.	.	8r	8r	8cc\	8ee\
8C/L	.	8cc\L	8cc\L	8c\	in	o-	.	.	.	.	.	.	8cc\L	8ee\L	8r	8r
8C/	.	8cc\	8cc\	8c\	no-	[[-ra	.	.	.	.	.	.	8cc\	8ee\	4r	4r
8C/J	.	8cc\J	8cc\J	8c\	-mi-	pro]]-	.	.	.	.	.	.	8cc\J	8ee\J	.	.
!	!	!	!	!	!	!	!	!	!	!	!	!	!LO:LB:g=original	!	!	!LO:LB:g=original
=99	=99	=99	=99	=99	=99	=99	=99	=99	=99	=99	=99	=99	=99	=99	=99	=99
4AA/	.	4a/	4a/	4c\	-ne	-ra	2.ryy	.	2.ryy	.	2.ryy	.	4cc\	4ee\	16cc\LL	16ee\LL
.	.	.	.	.	.	.	.	.	.	.	.	.	.	.	16dd\	16ff\
.	.	.	.	.	.	.	.	.	.	.	.	.	.	.	16cc\	16ee\
.	.	.	.	.	.	.	.	.	.	.	.	.	.	.	16dd\JJ	16ff\JJ
8r	.	8r	8r	8r	.	.	.	.	.	.	.	.	8r	8r	8cc\	8ee\
8AA/L	.	8a/L	8a/L	8c\	in	o-	.	.	.	.	.	.	8cc\L	8ee\L	8r	8r
8AA/	.	8a/	8a/	8c\	no-	-ra	.	.	.	.	.	.	8cc\	8ee\	4r	4r
8AA/J	.	8a/J	8a/J	8c\	-mi-	pro	.	.	.	.	.	.	8cc\J	8ee\J	.	.
!	!	!	!	!	!	!	!	!	!	!	!	!	!	!LO:LB:g=original	!	!
=100	=100	=100	=100	=100	=100	=100	=100	=100	=100	=100	=100	=100	=100	=100	=100	=100
2.GG/	.	4g/	2g/	2c\	-ne	no-	2.ryy	.	2.ryy	.	2.ryy	.	4b\	4ee\	2cc\	2ee\
.	.	4r	.	.	.	.	.	.	.	.	.	.	4r	4r	.	.
.	.	4r	4r	4c\	in	-bis	.	.	.	.	.	.	4r	4r	4dd\	4ff\
=101	=101	=101	=101	=101	=101	=101	=101	=101	=101	=101	=101	=101	=101	=101	=101	=101
2.AA-X/	-5 3	2a-X/	2a-X/	2c\	no-	pro	2.ryy	.	2.ryy	.	2.ryy	.	2.r	2.r	2ee-X\	2ff#X\
.	.	4a-/	4a-/	8c\	-mi-	.	.	.	.	.	.	.	.	.	4ee-\	4ff#\
.	.	.	.	8c\	-ne	.	.	.	.	.	.	.	.	.	.	.
!	!	!	!	!LO:LB:g=original	!	!	!	!	!	!	!	!	!	!	!	!
=102	=102	=102	=102	=102	=102	=102	=102	=102	=102	=102	=102	=102	=102	=102	=102	=102
!	!	!	!	!LO:TR:acc=none	!	!	!	!	!	!	!	!	!	!	!	!
2GG/	6 4	2g/	2g/	2ct\	do-	no-	2.ryy	.	2.ryy	.	2.ryy	.	2G/	2g/	2een\	2gg\
4GG/	7 5	4f 4G/	4f/	4Bt\	-mi-	.	.	.	.	.	.	.	4G/	4g/	4dd\	4ffn\
!	!	!	!	!	!	!	!	!	!	!	!	!	!	!	!LO:LB:g=original	!
=103	=103	=103	=103	=103	=103	=103	=103	=103	=103	=103	=103	=103	=103	=103	=103	=103
4C/	3 8	4e 4G/	4e 4G/	4c\	-ni	-bis	2.ryy	.	2.ryy	.	2.ryy	.	4e/	4cc\	16cc\LL	16ee\LL
.	.	.	.	.	.	.	.	.	.	.	.	.	.	.	16ee\	16gg\
.	.	.	.	.	.	.	.	.	.	.	.	.	.	.	16ff\	16aa\
.	.	.	.	.	.	.	.	.	.	.	.	.	.	.	16dd\JJ	16bb\JJ
4r	.	4r	4r	4r	.	.	.	.	.	.	.	.	4r	4r	16ee\LL	16ccc\LL
.	.	.	.	.	.	.	.	.	.	.	.	.	.	.	16ee\	16gg\
.	.	.	.	.	.	.	.	.	.	.	.	.	.	.	16ff\	16aa\
.	.	.	.	.	.	.	.	.	.	.	.	.	.	.	16ee\JJ	16gg\JJ
4r	.	4r	4r	4r	.	.	.	.	.	.	.	.	4r	4r	4cc\	4ee\
!	!	!LO:LB:g=original	!	!	!	!	!	!	!	!	!	!	!	!	!	!
=104	=104	=104	=104	=104	=104	=104	=104	=104	=104	=104	=104	=104	=104	=104	=104	=104
!LO:TX:t=P:problem:mixed beam	!	!	!	!LO:N:vis=00	!	!	!	!	!	!	!	!	!	!	!	!LO:TX:a:t=7
!LO:TX:t=P:problem:ósemki i tremolo połączone belką	!	!	!	!	!	!	!	!	!	!	!	!	!LO:N:vis=00	!LO:N:vis=00	!LO:N:vis=00	!LO:N:vis=00
8C/L	5 3	16c/LL	16gg|\LL	0.r	.	.	2.ryy	.	2.ryy	.	2.ryy	.	0.r	0.r	0.r	0.r
.	.	16e/	16ee\	.	.	.	.	.	.	.	.	.	.	.	.	.
8c\J	.	16g/	16dd\	.	.	.	.	.	.	.	.	.	.	.	.	.
.	.	16e/JJ	16cc\JJ	.	.	.	.	.	.	.	.	.	.	.	.	.
*tremolo	*	*rep	*	*	*	*	*	*	*	*	*	*	*	*	*	*
8c\L	6 4	16c/LL	4cc\	.	.	.	.	.	.	.	.	.	.	.	.	.
.	.	16e/	.	.	.	.	.	.	.	.	.	.	.	.	.	.
8c\	.	16g/	.	.	.	.	.	.	.	.	.	.	.	.	.	.
.	.	16e/JJ	.	.	.	.	.	.	.	.	.	.	.	.	.	.
*	*	*Xrep	*	*	*	*	*	*	*	*	*	*	*	*	*	*
8c\	.	16c/LL	16cc\LL	.	.	.	.	.	.	.	.	.	.	.	.	.
.	.	16f/	16ccc\	.	.	.	.	.	.	.	.	.	.	.	.	.
8c\J	.	16a/	16bb\	.	.	.	.	.	.	.	.	.	.	.	.	.
.	.	16f/JJ	16aa\JJ	.	.	.	.	.	.	.	.	.	.	.	.	.
*Xtremolo	*	*	*	*	*	*	*	*	*	*	*	*	*	*	*	*
!	!	!	!LO:LB:g=original	!	!	!	!	!	!	!	!	!	!	!	!	!
=105	=105	=105	=105	=105	=105	=105	=105	=105	=105	=105	=105	=105	=105	=105	=105	=105
*	*	*rep	*	*	*	*	*	*	*	*	*	*	*	*	*	*
!LO:TX:t=P:problem:ósemki i tremolo połączone belką	!	!	!	!	!	!	!	!	!	!	!	!	!	!	!	!
!LO:TX:t=P:problem:mixed beam	!	!	!	!	!	!	!	!	!	!	!	!	!	!	!	!
8C/L	.	16c/LL	16aa\LL	.	.	.	2.ryy	.	2.ryy	.	2.ryy	.	.	.	.	.
.	.	16f/	16bb\	.	.	.	.	.	.	.	.	.	.	.	.	.
8c\J	.	16a/	16ccc\	.	.	.	.	.	.	.	.	.	.	.	.	.
.	.	16f/JJ	16aa\JJ	.	.	.	.	.	.	.	.	.	.	.	.	.
*tremolo	*	*Xrep	*	*	*	*	*	*	*	*	*	*	*	*	*	*
8c\L	5 3	16c/LL	4gg\	.	.	.	.	.	.	.	.	.	.	.	.	.
.	.	16e/	.	.	.	.	.	.	.	.	.	.	.	.	.	.
8c\	.	16g/	.	.	.	.	.	.	.	.	.	.	.	.	.	.
.	.	16e/JJ	.	.	.	.	.	.	.	.	.	.	.	.	.	.
*	*	*rep	*	*	*	*	*	*	*	*	*	*	*	*	*	*
8c\	.	16c/LL	16gg\LL	.	.	.	.	.	.	.	.	.	.	.	.	.
.	.	16e/	16ccc\	.	.	.	.	.	.	.	.	.	.	.	.	.
8c\J	.	16g/	16eee\	.	.	.	.	.	.	.	.	.	.	.	.	.
.	.	16e/JJ	16ggg\JJ	.	.	.	.	.	.	.	.	.	.	.	.	.
*Xtremolo	*	*Xrep	*	*	*	*	*	*	*	*	*	*	*	*	*	*
=106	=106	=106	=106	=106	=106	=106	=106	=106	=106	=106	=106	=106	=106	=106	=106	=106
!LO:TX:t=P:problem:ósemki i tremolo połączone belką	!	!	!	!	!	!	!	!	!	!	!	!	!	!	!	!
!LO:TX:t=P:problem:mixed beam	!	!	!	!	!	!	!	!	!	!	!	!	!	!	!	!
8C\L	.	16c/LL	16ggg\LL	.	.	.	2.ryy	.	2.ryy	.	2.ryy	.	.	.	.	.
.	.	16f/	16aa\JJ	.	.	.	.	.	.	.	.	.	.	.	.	.
8c\J	6 4	16a/	4aa\	.	.	.	.	.	.	.	.	.	.	.	.	.
.	.	16f/JJ	.	.	.	.	.	.	.	.	.	.	.	.	.	.
*tremolo	*	*rep	*	*	*	*	*	*	*	*	*	*	*	*	*	*
8c\L	.	16c/LL	.	.	.	.	.	.	.	.	.	.	.	.	.	.
.	.	16f/	.	.	.	.	.	.	.	.	.	.	.	.	.	.
8c\	.	16a/	16bb\LL	.	.	.	.	.	.	.	.	.	.	.	.	.
.	.	16f/JJ	16ccc\JJ	.	.	.	.	.	.	.	.	.	.	.	.	.
*	*	*Xrep	*	*	*	*	*	*	*	*	*	*	*	*	*	*
*	*	*rep	*	*	*	*	*	*	*	*	*	*	*	*	*	*
8c\	.	16c/LL	16ddd\LL	.	.	.	.	.	.	.	.	.	.	.	.	.
.	.	16f/	16eee\	.	.	.	.	.	.	.	.	.	.	.	.	.
8c\J	.	16a/	16fff\	.	.	.	.	.	.	.	.	.	.	.	.	.
.	.	16f/JJ	16aa\JJ	.	.	.	.	.	.	.	.	.	.	.	.	.
*	*	*Xrep	*	*	*	*	*	*	*	*	*	*	*	*	*	*
=107	=107	=107	=107	=107	=107	=107	=107	=107	=107	=107	=107	=107	=107	=107	=107	=107
*	*	*	*	*	*	*	*	*	*	*	*	*	*	*	*	*
!LO:TX:t=P:problem:ósemki i tremolo połączone belką	!	!	!	!	!	!	!	!	!	!	!	!	!	!	!	!
8C/L	5 3	16c/LL	16ff#X\LL	.	.	.	2.ryy	.	2.ryy	.	2.ryy	.	.	.	.	.
.	.	16e/	16gg\	.	.	.	.	.	.	.	.	.	.	.	.	.
8C/	.	16g/	16aa\	.	.	.	.	.	.	.	.	.	.	.	.	.
.	.	16e/JJ	16gg\JJ	.	.	.	.	.	.	.	.	.	.	.	.	.
*	*	*rep	*	*	*	*	*	*	*	*	*	*	*	*	*	*
8C/	.	16c/LL	4gg\	.	.	.	.	.	.	.	.	.	.	.	.	.
.	.	16e/	.	.	.	.	.	.	.	.	.	.	.	.	.	.
8C/J	.	16g/	.	.	.	.	.	.	.	.	.	.	.	.	.	.
.	.	16e/JJ	.	.	.	.	.	.	.	.	.	.	.	.	.	.
*Xtremolo	*	*Xrep	*	*	*	*	*	*	*	*	*	*	*	*	*	*
*	*	*rep	*	*	*	*	*	*	*	*	*	*	*	*	*	*
8E/L	6 3	16c/LL	16gg\LL	.	.	.	.	.	.	.	.	.	.	.	.	.
.	.	16e/	16eee\	.	.	.	.	.	.	.	.	.	.	.	.	.
8E/J	.	16g/	16ddd\	.	.	.	.	.	.	.	.	.	.	.	.	.
.	.	16e/JJ	16ccc\JJ	.	.	.	.	.	.	.	.	.	.	.	.	.
*	*	*Xrep	*	*	*	*	*	*	*	*	*	*	*	*	*	*
=108	=108	=108	=108	=108	=108	=108	=108	=108	=108	=108	=108	=108	=108	=108	=108	=108
*tremolo	*	*	*	*	*	*	*	*	*	*	*	*	*	*	*	*
!	!	!	!	!LO:N:vis=00	!	!	!	!	!	!	!	!	!LO:N:vis=0	!LO:N:vis=0	!LO:N:vis=0	!LO:N:vis=0
8D/L	6 3	16d/LL	16ccc\LL	0.r	.	.	2.ryy	.	2.ryy	.	2.ryy	.	1.r	1.r	1.r	1.r
.	.	16f/	16bb\	.	.	.	.	.	.	.	.	.	.	.	.	.
8D/	.	16g/	16ddd\	.	.	.	.	.	.	.	.	.	.	.	.	.
.	.	16f/JJ	16ccc\JJ	.	.	.	.	.	.	.	.	.	.	.	.	.
*	*	*rep	*	*	*	*	*	*	*	*	*	*	*	*	*	*
8D/	.	16d/LL	4bb\	.	.	.	.	.	.	.	.	.	.	.	.	.
.	.	16f/	.	.	.	.	.	.	.	.	.	.	.	.	.	.
8D/J	.	16g/	.	.	.	.	.	.	.	.	.	.	.	.	.	.
.	.	16f/JJ	.	.	.	.	.	.	.	.	.	.	.	.	.	.
*Xtremolo	*	*Xrep	*	*	*	*	*	*	*	*	*	*	*	*	*	*
*	*	*rep	*	*	*	*	*	*	*	*	*	*	*	*	*	*
8GG/L	7 5	16d/LL	16gg\LL	.	.	.	.	.	.	.	.	.	.	.	.	.
.	.	16f/	16fff\	.	.	.	.	.	.	.	.	.	.	.	.	.
8GG/J	.	16g/	16eee\	.	.	.	.	.	.	.	.	.	.	.	.	.
.	.	16f/JJ	16ddd\JJ	.	.	.	.	.	.	.	.	.	.	.	.	.
*	*	*Xrep	*	*	*	*	*	*	*	*	*	*	*	*	*	*
=109	=109	=109	=109	=109	=109	=109	=109	=109	=109	=109	=109	=109	=109	=109	=109	=109
*tremolo	*	*	*	*	*	*	*	*	*	*	*	*	*	*	*	*
8C/L	.	16c/LL	16ddd\LL	.	.	.	2.ryy	.	2.ryy	.	2.ryy	.	.	.	.	.
.	.	16e/	16ccc\	.	.	.	.	.	.	.	.	.	.	.	.	.
8C/	.	16g/	16eee\	.	.	.	.	.	.	.	.	.	.	.	.	.
.	.	16e/JJ	16ddd\JJ	.	.	.	.	.	.	.	.	.	.	.	.	.
!	!	!LO:LB:g=original	!	!	!	!	!	!	!	!	!	!	!	!	!	!
8C/	.	16c/LL	4ccc\	.	.	.	.	.	.	.	.	.	.	.	.	.
.	.	16e/	.	.	.	.	.	.	.	.	.	.	.	.	.	.
8C/J	.	16g/	.	.	.	.	.	.	.	.	.	.	.	.	.	.
.	.	16e/JJ	.	.	.	.	.	.	.	.	.	.	.	.	.	.
*Xtremolo	*	*	*	*	*	*	*	*	*	*	*	*	*	*	*	*
8E/L	.	16e/LL	16gg\LL	.	.	.	.	.	.	.	.	.	.	.	.	.
.	.	16g/	16ggg\	.	.	.	.	.	.	.	.	.	.	.	.	.
8E/J	.	16cc/	16fff\	.	.	.	.	.	.	.	.	.	.	.	.	.
.	.	16g/JJ	16eee\JJ	.	.	.	.	.	.	.	.	.	.	.	.	.
!LO:LB:g=original	!	!	!LO:LB:g=original	!	!	!	!	!	!	!	!	!	!	!	!	!
=110	=110	=110	=110	=110	=110	=110	=110	=110	=110	=110	=110	=110	=110	=110	=110	=110
!LO:TX:t=P:problem:mixed beam	!	!	!	!	!	!	!	!	!	!	!	!	!	!	!	!
8F\L	.	16f/LL	16eee\LL	.	.	.	2.ryy	.	2.ryy	.	2.ryy	.	2.r	2.r	2.r	2.r
.	.	16a/	16fff\	.	.	.	.	.	.	.	.	.	.	.	.	.
!	!	!	!LO:TX:t=P:problem:niewyraźny znak	!	!	!	!	!	!	!	!	!	!	!	!	!
8F\	.	16dd/	16aa\	.	.	.	.	.	.	.	.	.	.	.	.	.
.	.	16a/JJ	16ddd|\JJ	.	.	.	.	.	.	.	.	.	.	.	.	.
8G\	.	16a/LL	8.ccc\L	.	.	.	.	.	.	.	.	.	.	.	.	.
.	.	16cc/	.	.	.	.	.	.	.	.	.	.	.	.	.	.
8G\	.	16ee/	.	.	.	.	.	.	.	.	.	.	.	.	.	.
.	.	16cc/JJ	16ddd\Jk	.	.	.	.	.	.	.	.	.	.	.	.	.
8GG/	.	16g/LL	4dddT\	.	.	.	.	.	.	.	.	.	.	.	.	.
.	.	16b/	.	.	.	.	.	.	.	.	.	.	.	.	.	.
8GG/J	.	16dd/	.	.	.	.	.	.	.	.	.	.	.	.	.	.
.	.	16b/JJ	.	.	.	.	.	.	.	.	.	.	.	.	.	.
=111	=111	=111	=111	=111	=111	=111	=111	=111	=111	=111	=111	=111	=111	=111	=111	=111
!LO:SIC:v:s=4C/	!	!	!	!	!	!	!	!	!	!	!	!	!	!	!	!
4BB/	.	4cc\	4ccc|\	.	.	.	2.ryy	.	2.ryy	.	2.ryy	.	4e/	4cc\	8r	8r
.	.	.	.	.	.	.	.	.	.	.	.	.	.	.	16cc\LL	16ee\LL
.	.	.	.	.	.	.	.	.	.	.	.	.	.	.	16dd\JJ	16ff\JJ
4r	.	4r	4r	.	.	.	.	.	.	.	.	.	4r	4r	8ee\L	8gg\L
.	.	.	.	.	.	.	.	.	.	.	.	.	.	.	8aa\	8ccc\
4GG/	.	4r	4r	.	.	.	.	.	.	.	.	.	4g/	4dd\	8gg\	8bb\
.	.	.	.	.	.	.	.	.	.	.	.	.	.	.	8ff\J	8aa\J
!	!	!	!	!	!	!	!	!	!	!	!	!	!	!	!	!LO:LB:g=original
=112	=112	=112	=112	=112	=112	=112	=112	=112	=112	=112	=112	=112	=112	=112	=112	=112
!	!	!	!	!LO:N:vis=0	!	!	!	!	!	!	!	!	!	!	!	!
4C/	.	4e/	4cc\	1.r	.	.	2.ryy	.	2.ryy	.	2.ryy	.	4cc\	4ee\	8ee\L	8gg\L
.	.	.	.	.	.	.	.	.	.	.	.	.	.	.	16cc\L	16ee\L
.	.	.	.	.	.	.	.	.	.	.	.	.	.	.	16dd\JJ	16ff\JJ
4r	.	4r	4r	.	.	.	.	.	.	.	.	.	4r	4r	8ee\L	8gg\L
.	.	.	.	.	.	.	.	.	.	.	.	.	.	.	8ff\	8aa\
4GG/	.	4g/	4b 4d/	.	.	.	.	.	.	.	.	.	4g/	4dd\	8ee\	8gg\
.	.	.	.	.	.	.	.	.	.	.	.	.	.	.	8dd\J	8ff\J
=113	=113	=113	=113	=113	=113	=113	=113	=113	=113	=113	=113	=113	=113	=113	=113	=113
4GG/	.	4f/	4b 4d/	.	.	.	2.ryy	.	2.ryy	.	2.ryy	.	4dd\	4dd\	4dd\	4ff\
!LO:TX:t=P:problem:mixed beam	!	!	!	!	!	!	!	!	!	!	!	!	!	!	!	!
16C/LL	.	4e/	4cc 4e/	.	.	.	.	.	.	.	.	.	16cc\LL	16cc/LL	8cc\L	8ee\L
16c\	.	.	.	.	.	.	.	.	.	.	.	.	16cc\	16cc/	.	.
16G\	.	.	.	.	.	.	.	.	.	.	.	.	16g\	16g/	8ee\	8gg\
16E\JJ	.	.	.	.	.	.	.	.	.	.	.	.	16e\JJ	16e/JJ	.	.
!	!	!	!	!	!	!	!	!	!	!	!	!	!	!	!	!
4C/	.	4r	4r	.	.	.	.	.	.	.	.	.	4c/	4c/	8cc\J	8ee\J
.	.	.	.	.	.	.	.	.	.	.	.	.	.	.	8r	8r
!	!	!	!LO:TX:b:rj:t=Osanna Verte	!	!	!	!	!	!	!	!	!	!	!	!	!
!LO:LB:g=original	!	!LO:LB:g=original	!LO:PB:g=original	!LO:PB:g=original	!	!	!	!	!	!	!	!	!LO:LB:g=original	!LO:LB:g=original	!LO:LB:g=original	!LO:LB:g=original
=114||	=114||	=114||	=114||	=114||	=114||	=114||	=114||	=114||	=114||	=114||	=114||	=114||	=114||	=114||	=114||	=114||
*M2/2	*	*M2/2	*M2/2	*M2/2	*	*	*M2/2	*	*M2/2	*	*M2/2	*	*M2/2	*M2/2	*M2/2	*M2/2
*met(c|)	*	*met(c|)	*met(c|)	*met(c|)	*	*	*met(c|)	*	*met(c|)	*	*met(c|)	*	*met(c|)	*met(c|)	*met(c|)	*met(c|)
*clefC1	*	*	*	*	*	*	*	*	*	*	*	*	*	*	*	*
!	!	!	!	!	!	!	!	!	!	!	!	!	!	!	!	!LO:TX:b:t=Osanna
!	!	!	!	!	!	!	!	!	!	!	!	!	!LO:TX:b:t=Osanna	!LO:TX:b:t=Osanna	!LO:TX:b:t=Osanna	!LO:TX:a:B:t=Allegro
!LO:TX:b:t=Osanna	!	!LO:TX:b:t=Osanna	!LO:TX:b:t=Osanna	!	!	!	!LO:TX:a:B:t=allegro	!	!LO:TX:a:t=Osanna ut Pleni sunt	!	!LO:TX:a:t=Osanna ut Plenisunt	!	!LO:TX:a:B:t=Allegro	!LO:TX:a:B:t=Allegro	!LO:TX:a:B:t=Allegro	!LO:TX:a:t=10
2gg\	.	00r	00r	00r	.	.	00r	.	1ryy	.	1ryy	.	00r	00r	00r	00r
4ee\	.	.	.	.	.	.	.	.	.	.	.	.	.	.	.	.
4cc\	.	.	.	.	.	.	.	.	.	.	.	.	.	.	.	.
=115	=115	=115	=115	=115	=115	=115	=115	=115	=115	=115	=115	=115	=115	=115	=115	=115
4dd\	.	.	.	.	.	.	.	.	1ryy	.	1ryy	.	.	.	.	.
4ff\	.	.	.	.	.	.	.	.	.	.	.	.	.	.	.	.
4b\	.	.	.	.	.	.	.	.	.	.	.	.	.	.	.	.
4dd\	.	.	.	.	.	.	.	.	.	.	.	.	.	.	.	.
=116	=116	=116	=116	=116	=116	=116	=116	=116	=116	=116	=116	=116	=116	=116	=116	=116
4cc\	.	.	.	.	.	.	.	.	1ryy	.	1ryy	.	.	.	.	.
4gg\	.	.	.	.	.	.	.	.	.	.	.	.	.	.	.	.
4ee\	.	.	.	.	.	.	.	.	.	.	.	.	.	.	.	.
4cc\	.	.	.	.	.	.	.	.	.	.	.	.	.	.	.	.
=117	=117	=117	=117	=117	=117	=117	=117	=117	=117	=117	=117	=117	=117	=117	=117	=117
4dd\	.	.	.	.	.	.	.	.	1ryy	.	1ryy	.	.	.	.	.
4ff\	.	.	.	.	.	.	.	.	.	.	.	.	.	.	.	.
4b\	.	.	.	.	.	.	.	.	.	.	.	.	.	.	.	.
4dd\	.	.	.	.	.	.	.	.	.	.	.	.	.	.	.	.
=118	=118	=118	=118	=118	=118	=118	=118	=118	=118	=118	=118	=118	=118	=118	=118	=118
4cc\	.	00r	00r	1r	.	.	00r	.	1ryy	.	1ryy	.	00r	00r	00r	00r
4ee\	.	.	.	.	.	.	.	.	.	.	.	.	.	.	.	.
4dd\	.	.	.	.	.	.	.	.	.	.	.	.	.	.	.	.
4ff#X\	.	.	.	.	.	.	.	.	.	.	.	.	.	.	.	.
=119	=119	=119	=119	=119	=119	=119	=119	=119	=119	=119	=119	=119	=119	=119	=119	=119
*clefF4	*	*	*	*	*	*	*	*	*	*	*	*	*	*	*	*
2d\	x 4	.	.	2d\	O-	.	.	.	1ryy	.	1ryy	.	.	.	.	.
4B\	.	.	.	4B\	-san-	.	.	.	.	.	.	.	.	.	.	.
4G\	.	.	.	4G\	-na	.	.	.	.	.	.	.	.	.	.	.
!LO:LB:g=original	!	!	!	!	!	!	!	!	!	!	!	!	!	!	!	!
=120	=120	=120	=120	=120	=120	=120	=120	=120	=120	=120	=120	=120	=120	=120	=120	=120
*^	*	*	*	*	*	*	*	*	*	*	*	*	*	*	*	*
2e/	4A\	.	.	.	4A\	in	.	.	.	1ryy	.	1ryy	.	.	.	.	.
.	4c\	.	.	.	4c\	ex-	.	.	.	.	.	.	.	.	.	.	.
2c/	4F#X\	.	.	.	(4F#X\	-cael-	.	.	.	.	.	.	.	.	.	.	.
.	4A\	.	.	.	4A\)	.	.	.	.	.	.	.	.	.	.	.	.
=121	=121	=121	=121	=121	=121	=121	=121	=121	=121	=121	=121	=121	=121	=121	=121	=121	=121
4B/	4G\	.	.	.	4G\	-sis	.	.	.	1ryy	.	1ryy	.	.	.	.	.
2.ryy	4d\	.	.	.	4d\	O-	.	.	.	.	.	.	.	.	.	.	.
.	4B\	.	.	.	4B\	-san-	.	.	.	.	.	.	.	.	.	.	.
.	4G\	.	.	.	4G\	-na	.	.	.	.	.	.	.	.	.	.	.
=122	=122	=122	=122	=122	=122	=122	=122	=122	=122	=122	=122	=122	=122	=122	=122	=122	=122
2e/	4A\	.	0r	0r	4A\	in	.	0r	.	1ryy	.	1ryy	.	0r	0r	0r	0r
.	4c\	.	.	.	4c\	ex-	.	.	.	.	.	.	.	.	.	.	.
2c/	4F#X\	.	.	.	(4F#X\	-cel-	.	.	.	.	.	.	.	.	.	.	.
.	4A\	.	.	.	4A\)	.	.	.	.	.	.	.	.	.	.	.	.
!	!	!	!	!	!LO:LB:g=original	!	!	!	!	!	!	!	!	!	!	!	!
=123	=123	=123	=123	=123	=123	=123	=123	=123	=123	=123	=123	=123	=123	=123	=123	=123	=123
4B/	4G\	.	.	.	4G\	-sis	.	.	.	1ryy	.	1ryy	.	.	.	.	.
4B/	4Fn\	.	.	.	4Fn\	O-	.	.	.	.	.	.	.	.	.	.	.
4c/	4E\	.	.	.	4E\	-san-	.	.	.	.	.	.	.	.	.	.	.
4fn/	4D\	.	.	.	4D\	-na	.	.	.	.	.	.	.	.	.	.	.
*v	*v	*	*	*	*	*	*	*	*	*	*	*	*	*	*	*	*
=124	=124	=124	=124	=124	=124	=124	=124	=124	=124	=124	=124	=124	=124	=124	=124	=124
*	*	*tremolo	*tremolo	*	*	*	*	*	*	*	*	*	*	*	*	*
!	!	!	!	!	!	!	!	!	!LO:TX:t=P:problem:powtórka z taktów 32-43	!	!	!	!	!	!	!
4C/	3 8	16e/LL	16ccc\LL	4C/	in	.	2c\	O-	2g\yy	O-	2ryy	.	2g/	2gg\	4e/	2gg\
.	.	16e/	16ccc\	.	.	.	.	.	.	.	.	.	.	.	.	.
.	.	16e/	16ccc\	.	.	.	.	.	.	.	.	.	.	.	.	.
.	.	16e/JJ	16ccc\JJ	.	.	.	.	.	.	.	.	.	.	.	.	.
4G\	.	16c/LL	16gg\LL	4E/	ex-	.	.	.	.	.	.	.	.	.	4g/	.
.	.	16c/	16gg\	.	.	.	.	.	.	.	.	.	.	.	.	.
.	.	16c/	16gg\	.	.	.	.	.	.	.	.	.	.	.	.	.
.	.	16c/JJ	16gg\JJ	.	.	.	.	.	.	.	.	.	.	.	.	.
!	!	!	!	!	!	!	!	!	!	!	!LO:TX:t=P:problem:powtórka z taktów od połowy 32-43	!	!	!	!	!
4E\	.	16g/LL	16ee\LL	4G/	-cel-	.	4c\	-san-	4g\yy	-san-	2ee\yy	O-	4e/	4ee\	4e/	4ee\
.	.	16g/	16ee\	.	.	.	.	.	.	.	.	.	.	.	.	.
.	.	16g/	16ee\	.	.	.	.	.	.	.	.	.	.	.	.	.
.	.	16g/JJ	16ee\JJ	.	.	.	.	.	.	.	.	.	.	.	.	.
4C/	.	16e/LL	16cc\LL	4c/	-sis	.	4c\	-na	4g\yy	-na	.	.	4c/	4cc\	4g/	4cc\
.	.	16e/	16cc\	.	.	.	.	.	.	.	.	.	.	.	.	.
.	.	16e/	16cc\	.	.	.	.	.	.	.	.	.	.	.	.	.
.	.	16e/JJ	16cc\JJ	.	.	.	.	.	.	.	.	.	.	.	.	.
=125	=125	=125	=125	=125	=125	=125	=125	=125	=125	=125	=125	=125	=125	=125	=125	=125
*	*	*	*	*	*	*	*	*ij	*	*	*	*	*	*	*	*
4A\	6 4	16d/LL	16ff\LL	2G\	O-	.	2d\	O-	2a\yy	in	2ff\yy	-san-	2dd\	2ff\	4f/	4dd\
.	.	16d/	16ff\	.	.	.	.	.	.	.	.	.	.	.	.	.
.	.	16d/	16ff\	.	.	.	.	.	.	.	.	.	.	.	.	.
.	.	16d/JJ	16ff\JJ	.	.	.	.	.	.	.	.	.	.	.	.	.
4F\	.	16f/LL	16dd\LL	.	.	.	.	.	.	.	.	.	.	.	4g/	4ff\
.	.	16f/	16dd\	.	.	.	.	.	.	.	.	.	.	.	.	.
.	.	16f/	16dd\	.	.	.	.	.	.	.	.	.	.	.	.	.
.	.	16f/JJ	16dd\JJ	.	.	.	.	.	.	.	.	.	.	.	.	.
4G\	5 3	16B/LL	16ddd\LL	2G\	-sanna	.	2B\	-san-	2b\yy	ex-	2dd\yy	-na	2g/	2dd\	4f/	4b\
.	.	16B/	16ddd\	.	.	.	.	.	.	.	.	.	.	.	.	.
.	.	16B/	16ddd\	.	.	.	.	.	.	.	.	.	.	.	.	.
.	.	16B/JJ	16ddd\JJ	.	.	.	.	.	.	.	.	.	.	.	.	.
4GG/	.	16d/LL	16bb\LL	.	.	.	.	.	.	.	.	.	.	.	4g/	4dd\
.	.	16d/	16bb\	.	.	.	.	.	.	.	.	.	.	.	.	.
.	.	16d/	16bb\	.	.	.	.	.	.	.	.	.	.	.	.	.
.	.	16d/JJ	16bb\JJ	.	.	.	.	.	.	.	.	.	.	.	.	.
=126	=126	=126	=126	=126	=126	=126	=126	=126	=126	=126	=126	=126	=126	=126	=126	=126
4C/	3 8	16e/LL	16ccc\LL	4C/	in	.	2c\	-na	2cc\yy	-cel-	2ee\yy	In	4c/	4cc\	4e/	4cc\
*	*	*	*	*	*	*	*	*Xij	*	*	*	*	*	*	*	*
.	.	16e/	16ccc\	.	.	.	.	.	.	.	.	.	.	.	.	.
.	.	16e/	16ccc\	.	.	.	.	.	.	.	.	.	.	.	.	.
.	.	16e/JJ	16ccc\JJ	.	.	.	.	.	.	.	.	.	.	.	.	.
4G\	.	16c/LL	16gg\LL	4E/	ex-	.	.	.	.	.	.	.	4g/	4gg\	4g/	4gg\
.	.	16c/	16gg\	.	.	.	.	.	.	.	.	.	.	.	.	.
.	.	16c/	16gg\	.	.	.	.	.	.	.	.	.	.	.	.	.
.	.	16c/JJ	16gg\JJ	.	.	.	.	.	.	.	.	.	.	.	.	.
4E\	.	16g/LL	16ee\LL	4G/	-cel-	.	4c\	in	4g\yy	-sis	2ee\yy	ex-	4e/	4ee\	4e/	4ee\
.	.	16g/	16ee\	.	.	.	.	.	.	.	.	.	.	.	.	.
.	.	16g/	16ee\	.	.	.	.	.	.	.	.	.	.	.	.	.
.	.	16g/JJ	16ee\JJ	.	.	.	.	.	.	.	.	.	.	.	.	.
4C/	.	16e/LL	16cc\LL	4c/	-sis	.	4c\	ex-	4g\yy	O-	.	.	4c/	4cc\	4g/	4cc\
.	.	16e/	16cc\	.	.	.	.	.	.	.	.	.	.	.	.	.
.	.	16e/	16cc\	.	.	.	.	.	.	.	.	.	.	.	.	.
.	.	16e/JJ	16cc\JJ	.	.	.	.	.	.	.	.	.	.	.	.	.
=127	=127	=127	=127	=127	=127	=127	=127	=127	=127	=127	=127	=127	=127	=127	=127	=127
4A\	6 4	16d/LL	16ff\LL	2G\	O-	.	2d\	-cel-	2a\yy	-san-	2ff\yy	-cel-	2dd\	2ff\	4f/	4dd\
.	.	16d/	16ff\	.	.	.	.	.	.	.	.	.	.	.	.	.
.	.	16d/	16ff\	.	.	.	.	.	.	.	.	.	.	.	.	.
.	.	16d/JJ	16ff\JJ	.	.	.	.	.	.	.	.	.	.	.	.	.
4F\	.	16f/LL	16dd\LL	.	.	.	.	.	.	.	.	.	.	.	4g/	4ff\
.	.	16f/	16dd\	.	.	.	.	.	.	.	.	.	.	.	.	.
.	.	16f/	16dd\	.	.	.	.	.	.	.	.	.	.	.	.	.
.	.	16f/JJ	16dd\JJ	.	.	.	.	.	.	.	.	.	.	.	.	.
4G\	5 3	16B/LL	16ddd\LL	2G\	-sanna	.	2B\	-sis	2b\yy	-na	2dd\yy	-sis	2g/	2dd\	4f/	4b\
.	.	16B/	16ddd\	.	.	.	.	.	.	.	.	.	.	.	.	.
.	.	16B/	16ddd\	.	.	.	.	.	.	.	.	.	.	.	.	.
.	.	16B/JJ	16ddd\JJ	.	.	.	.	.	.	.	.	.	.	.	.	.
4GG/	.	16d/LL	16bb\LL	.	.	.	.	.	.	.	.	.	.	.	4g/	4dd\
.	.	16d/	16bb\	.	.	.	.	.	.	.	.	.	.	.	.	.
.	.	16d/	16bb\	.	.	.	.	.	.	.	.	.	.	.	.	.
.	.	16d/JJ	16bb\JJ	.	.	.	.	.	.	.	.	.	.	.	.	.
!LO:LB:g=original	!	!	!	!	!	!	!	!	!	!	!	!	!	!	!	!
=128	=128	=128	=128	=128	=128	=128	=128	=128	=128	=128	=128	=128	=128	=128	=128	=128
4C/	x 3	16eLL 16G/	16ccc\LL	4C/	in	.	4c\	in	4cc\yy	In	4cc\yy	In	4c/	4cc\	4e/	4cc\
.	.	16e 16G/	16ccc\	.	.	.	.	.	.	.	.	.	.	.	.	.
.	.	16e 16G/	16ccc\	.	.	.	.	.	.	.	.	.	.	.	.	.
.	.	16eJJ 16G/	16ccc\JJ	.	.	.	.	.	.	.	.	.	.	.	.	.
4C/	6 4	16fLL 16G/	16aa\LL	4c\	ex-	.	4f\	ex-	4cc\yy	ex-	4aa\yy	ex-	4c/	4cc\	4ff\	4aa\
.	.	16f 16G/	16aa\	.	.	.	.	.	.	.	.	.	.	.	.	.
.	.	16f 16G/	16aa\	.	.	.	.	.	.	.	.	.	.	.	.	.
.	.	16fJJ 16G/	16aa\JJ	.	.	.	.	.	.	.	.	.	.	.	.	.
4C/	5 3	16eLL 16G/	16gg\LL	4c\	-cel-	.	(4e\	-cel-	4cc\yy	-cel-	4gg\yy	-cel-	4c/	4cc\	4ee\	4gg\
.	.	16e 16G/	16gg\	.	.	.	.	.	.	.	.	.	.	.	.	.
.	.	16e 16G/	16gg\	.	.	.	.	.	.	.	.	.	.	.	.	.
.	.	16eJJ 16G/	16gg\JJ	.	.	.	.	.	.	.	.	.	.	.	.	.
4C/	6 4	16fLL 16G/	16aa\LL	4c\	-sis	.	4f\)	.	4cc\yy	-sis	4aa\yy	-sis	4c/	4cc\	4ff\	4aa\
.	.	16f 16G/	16aa\	.	.	.	.	.	.	.	.	.	.	.	.	.
.	.	16f 16G/	16aa\	.	.	.	.	.	.	.	.	.	.	.	.	.
.	.	16fJJ 16G/	16aa\JJ	.	.	.	.	.	.	.	.	.	.	.	.	.
!	!	!	!LO:LB:g=original	!LO:LB:g=original	!	!	!LO:LB:g=original	!	!	!	!	!	!	!	!	!
=129	=129	=129	=129	=129	=129	=129	=129	=129	=129	=129	=129	=129	=129	=129	=129	=129
*	*	*	*	*	*	*	*	*	*	*	*	*ij	*	*	*	*
4C/	5 3	16eLL 16G/	16gg\LL	(4c\	O-	.	4e\	-sis	4cc\yy	in	4gg\yy	In	4c/	4cc\	4ee\	4gg\
.	.	16e 16G/	16gg\	.	.	.	.	.	.	.	.	.	.	.	.	.
.	.	16e 16G/	16gg\	.	.	.	.	.	.	.	.	.	.	.	.	.
.	.	16eJJ 16G/	16gg\JJ	.	.	.	.	.	.	.	.	.	.	.	.	.
4E\	8 6	16eLL 16G/	16ccc\LL	4A\)	.	.	4c\	O-	4cc\yy	ex-	4ee\yy	ex-	4cc\	4ee\	4cc\	4ee\
.	.	16e 16G/	16ccc\	.	.	.	.	.	.	.	.	.	.	.	.	.
.	.	16e 16G/	16ccc\	.	.	.	.	.	.	.	.	.	.	.	.	.
.	.	16eJJ 16G/	16ccc\JJ	.	.	.	.	.	.	.	.	.	.	.	.	.
4F\	8 3	16fLL 16G/	16ddd\LL	(4F\	-san-	.	(4B\	-san-	4dd\yy	-cel-	4ff\yy	-cel-	4dd\	4ff\	4dd\	4ff\
.	.	16f 16G/	16ddd\	.	.	.	.	.	.	.	.	.	.	.	.	.
.	.	16f 16G/	16ddd\	.	.	.	.	.	.	.	.	.	.	.	.	.
.	.	16fJJ 16G/	16ddd\JJ	.	.	.	.	.	.	.	.	.	.	.	.	.
4G\	5 3	16dLL 16G/	16bb\LL	4G\)	.	.	4d\)	.	4b\yy	-sis	4dd\yy	-sis	4g/	4dd\	4g/	4dd\
.	.	16d 16G/	16bb\	.	.	.	.	.	.	.	.	.	.	.	.	.
.	.	16d 16G/	16bb\	.	.	.	.	.	.	.	.	.	.	.	.	.
.	.	16dJJ 16G/	16bb\JJ	.	.	.	.	.	.	.	.	.	.	.	.	.
!	!	!LO:LB:g=original	!	!	!	!	!	!	!	!	!	!	!	!	!	!LO:LB:g=original
=130	=130	=130	=130	=130	=130	=130	=130	=130	=130	=130	=130	=130	=130	=130	=130	=130
*	*	*	*	*	*	*	*	*	*	*ij	*	*	*	*	*	*
4c\	x 3	16eLL 16G/	16ccc\LL	4c\	-na	.	4c\	-na	4cc\yy	in	4cc\yy	In	4c/	4cc\	4e/	4cc\
.	.	16e 16G/	16ccc\	.	.	.	.	.	.	.	.	.	.	.	.	.
.	.	16e 16G/	16ccc\	.	.	.	.	.	.	.	.	.	.	.	.	.
.	.	16eJJ 16G/	16ccc\JJ	.	.	.	.	.	.	.	.	.	.	.	.	.
4c\	6 4	16fLL 16G/	16aa\LL	4c\	O-	.	4f\	in	4cc\yy	ex-	4aa\yy	ex-	4c/	4cc\	4ff\	4aa\
.	.	16f 16G/	16aa\	.	.	.	.	.	.	.	.	.	.	.	.	.
.	.	16f 16G/	16aa\	.	.	.	.	.	.	.	.	.	.	.	.	.
.	.	16fJJ 16G/	16aa\JJ	.	.	.	.	.	.	.	.	.	.	.	.	.
4c\	5 3	16eLL 16G/	16gg\LL	4c\	-san-	.	(4e\	ex-	4cc\yy	-cel-	4gg\yy	-cel-	4c/	4cc\	4ee\	4gg\
.	.	16e 16G/	16gg\	.	.	.	.	.	.	.	.	.	.	.	.	.
.	.	16e 16G/	16gg\	.	.	.	.	.	.	.	.	.	.	.	.	.
.	.	16eJJ 16G/	16gg\JJ	.	.	.	.	.	.	.	.	.	.	.	.	.
4c\	6 4	16fLL 16G/	16aa\LL	4c\	-na	.	4f\)	.	4cc\yy	-sis	4aa\yy	-sis	4c/	4cc\	4ff\	4aa\
*	*	*	*	*	*	*	*	*	*	*Xij	*	*	*	*	*	*
.	.	16f 16G/	16aa\	.	.	.	.	.	.	.	.	.	.	.	.	.
.	.	16f 16G/	16aa\	.	.	.	.	.	.	.	.	.	.	.	.	.
.	.	16fJJ 16G/	16aa\JJ	.	.	.	.	.	.	.	.	.	.	.	.	.
!	!	!	!	!	!	!	!	!	!	!	!	!	!LO:LB:g=original	!LO:LB:g=original	!LO:LB:g=original	!
=131	=131	=131	=131	=131	=131	=131	=131	=131	=131	=131	=131	=131	=131	=131	=131	=131
4B\	5 3	16eLL 16G/	16gg\LL	4c\	in	.	(4e\	-cel-	4cc\yy	in	4gg\yy	In	4c/	4cc\	4ee\	4gg\
.	.	16e 16G/	16gg\	.	.	.	.	.	.	.	.	.	.	.	.	.
.	.	16e 16G/	16gg\	.	.	.	.	.	.	.	.	.	.	.	.	.
.	.	16e 16G/	16gg\JJ	.	.	.	.	.	.	.	.	.	.	.	.	.
4E\	8 6	16e 16G/	16ccc\LL	4A\	ex-	.	4c\)	.	4cc\yy	ex-	4ee\yy	ex-	4cc\	4ee\	4cc\	4ee\
.	.	16e 16G/	16ccc\	.	.	.	.	.	.	.	.	.	.	.	.	.
.	.	16e 16G/	16ccc\	.	.	.	.	.	.	.	.	.	.	.	.	.
.	.	16eJJ 16G/	16ccc\JJ	.	.	.	.	.	.	.	.	.	.	.	.	.
4F\	8 3	16fLL 16G/	16ddd\LL	(4F\	-cel-	.	(4B\	.	(y4dd\yy	-cel-	4ff\yy	-cel-	4dd\	4ff\	4dd\	4ff\
.	.	16f 16G/	16ddd\	.	.	.	.	.	.	.	.	.	.	.	.	.
.	.	16f 16G/	16ddd\	.	.	.	.	.	.	.	.	.	.	.	.	.
.	.	16fJJ 16G/	16ddd\JJ	.	.	.	.	.	.	.	.	.	.	.	.	.
4G\	5 3	16dLL 16G/	16bb\LL	4G\)	.	.	4d\)	.	4b\)yy	.	4dd\yy	.	4g/	4dd\	4g/	4dd\
.	.	16d 16G/	16bb\	.	.	.	.	.	.	.	.	.	.	.	.	.
.	.	16d 16G/	16bb\	.	.	.	.	.	.	.	.	.	.	.	.	.
.	.	16dJJ 16G/	16bb\JJ	.	.	.	.	.	.	.	.	.	.	.	.	.
=132	=132	=132	=132	=132	=132	=132	=132	=132	=132	=132	=132	=132	=132	=132	=132	=132
4C/	x 3	4e 4G/	4ccc 4ee\	4c\	-sis	.	4c\	-sis	4cc\yy	-sis	4ee\yy	-sis	4cc\	4ee\	4cc\	4ee\
*	*	*	*	*	*	*	*	*	*	*	*	*Xij	*	*	*	*
4r	.	4r	4r	4r	.	.	4r	.	4ryy	.	4ryy	.	4r	4r	8ee\L	8gg\L
.	.	.	.	.	.	.	.	.	.	.	.	.	.	.	8ff\J	8aa\J
2r	.	2r	2r	2r	.	.	2r	.	2ryy	.	2ryy	.	4ee\	4gg\	4ee\	4gg\
.	.	.	.	.	.	.	.	.	.	.	.	.	4ee\	4gg\	4ee\	4gg\
=133	=133	=133	=133	=133	=133	=133	=133	=133	=133	=133	=133	=133	=133	=133	=133	=133
4C/	.	4e 4G/	4ccc 4ee 4g\	4c\	O-	.	4G/	O-	4cc\yy	O-	4ee\yy	O-	4ee\	4gg\	4ee\	4gg\
4r	.	4r	4r	4r	.	.	4r	.	4ryy	.	4ryy	.	8cc\L	8ee\L	8cc\L	8ee\L
.	.	.	.	.	.	.	.	.	.	.	.	.	8dd\J	8ff\J	8dd\J	8ff\J
2r	.	2r	2r	2r	.	.	2r	.	2ryy	.	2ryy	.	4cc\	4ee\	4cc\	4ee\
.	.	.	.	.	.	.	.	.	.	.	.	.	4cc\	4ee\	4cc\	4ee\
=134	=134	=134	=134	=134	=134	=134	=134	=134	=134	=134	=134	=134	=134	=134	=134	=134
2C/	.	2e 2G/	2ccc 2ee 2g\	2c\	-san-	.	2G/	-san-	[yy2cc\yy	-san-	2ee\yy	-san-	2cc\	2cc\	2cc\	2ee\
2C/	.	2cc 2e 2G/	2ccc 2ee 2g\	2c\	.	.	2G/	.	2cc\]yy	.	2ee\yy	.	2g/	2g/	2ee\	2gg\
.	.	.	.	.	.	.	.	.	.	.	.	.	.	.	.	.
!	!	!	!	!	!	!	!LO:LB:g=original	!	!	!	!	!	!	!	!	!
=135	=135	=135	=135	=135	=135	=135	=135	=135	=135	=135	=135	=135	=135	=135	=135	=135
2C/	.	2cc 2e 2G/	2ccc 2ee 2g\	2c\	-na	.	2G/	-na	2cc\yy	-na	2ee\yy	-na	2c/	2c/	2cc\	2ee\
2r	.	2r	2r	2r	.	.	4r	.	2ryy	.	2ryy	.	2r	2r	2r	2r
.	.	.	.	.	.	.	4r	.	.	.	.	.	.	.	.	.
==	==	==	==	==	==	==	==	==	==	==	==	==	==	==	==	==
*-	*-	*-	*-	*-	*-	*-	*-	*-	*-	*-	*-	*-	*-	*-	*-	*-
!!!system-decoration: [(g1)][(g2)][(g3)][(g4)]g5
!!!RDF**kern: | = vertical stroke
!!!ENC: Katarzyna Serwa
!!!END: 2021-11-29
!!!ENC: Andrzej Gręziak
!!!END: 2021-11-17
